;Generated with Makelangelo 7.76.1
; 2025-11-13 at 12:38:15 ART
;FLAVOR:Marlin-polargraph
;MINX:-175.000
;MINY:-199.792
;MAXX:175.000
;MAXY:185.208
;Start of user gcode
G0 Y0
;End of user gcode
G28 X Y
M201 X100.0 Y100.0
M203 X3000.0 Y3000.0
M204 S100.0
M205 X10 Y10
M280 P0 S90.0 T150.0
M0 Ready black and click
G0 X-29.583 Y-13.854 F3000.0
M280 P0 S25.0 T250.0
G1 X-29.583 Y-13.125 F3000.0
M280 P0 S90.0 T150.0
G0 X-29.583 Y-8.750 F3000.0
M280 P0 S25.0 T250.0
G1 X-29.583 Y-8.021 F3000.0
G1 X-29.583 Y-7.292 F3000.0
M280 P0 S90.0 T150.0
G0 X-28.854 Y-0.729 F3000.0
M280 P0 S25.0 T250.0
G1 X-28.854 Y-1.458 F3000.0
G1 X-28.854 Y-2.188 F3000.0
G1 X-28.854 Y-2.917 F3000.0
M280 P0 S90.0 T150.0
G0 X-28.854 Y-6.563 F3000.0
M280 P0 S25.0 T250.0
G1 X-28.854 Y-7.292 F3000.0
G1 X-28.854 Y-8.021 F3000.0
M280 P0 S90.0 T150.0
G0 X-28.854 Y-12.396 F3000.0
M280 P0 S25.0 T250.0
G1 X-28.854 Y-13.125 F3000.0
G1 X-28.854 Y-13.854 F3000.0
M280 P0 S90.0 T150.0
G0 X-27.396 Y4.375 F3000.0
M280 P0 S25.0 T250.0
G1 X-27.396 Y3.646 F3000.0
M280 P0 S90.0 T150.0
G0 X-27.396 Y-1.458 F3000.0
M280 P0 S25.0 T250.0
G1 X-27.396 Y-2.188 F3000.0
G1 X-27.396 Y-2.917 F3000.0
M280 P0 S90.0 T150.0
G0 X-27.396 Y-6.563 F3000.0
M280 P0 S25.0 T250.0
G1 X-27.396 Y-7.292 F3000.0
G1 X-27.396 Y-8.021 F3000.0
M280 P0 S90.0 T150.0
G0 X-27.396 Y-12.396 F3000.0
M280 P0 S25.0 T250.0
G1 X-27.396 Y-13.125 F3000.0
G1 X-27.396 Y-13.854 F3000.0
M280 P0 S90.0 T150.0
G0 X-27.396 Y-17.500 F3000.0
M280 P0 S25.0 T250.0
G1 X-27.396 Y-18.229 F3000.0
G1 X-27.396 Y-18.958 F3000.0
M280 P0 S90.0 T150.0
G0 X-26.667 Y-18.958 F3000.0
M280 P0 S25.0 T250.0
G1 X-26.667 Y-18.229 F3000.0
M280 P0 S90.0 T150.0
G0 X-26.667 Y-13.854 F3000.0
M280 P0 S25.0 T250.0
G1 X-26.667 Y-13.125 F3000.0
M280 P0 S90.0 T150.0
G0 X-26.667 Y-8.750 F3000.0
M280 P0 S25.0 T250.0
G1 X-26.667 Y-8.021 F3000.0
G1 X-26.667 Y-7.292 F3000.0
M280 P0 S90.0 T150.0
G0 X-26.667 Y-3.646 F3000.0
M280 P0 S25.0 T250.0
G1 X-26.667 Y-2.917 F3000.0
G1 X-26.667 Y-2.188 F3000.0
M280 P0 S90.0 T150.0
G0 X-25.937 Y4.375 F3000.0
M280 P0 S25.0 T250.0
G1 X-25.937 Y3.646 F3000.0
G1 X-25.937 Y2.917 F3000.0
M280 P0 S90.0 T150.0
G0 X-25.937 Y-1.458 F3000.0
M280 P0 S25.0 T250.0
G1 X-25.937 Y-2.188 F3000.0
G1 X-25.937 Y-2.917 F3000.0
M280 P0 S90.0 T150.0
G0 X-25.937 Y-6.563 F3000.0
M280 P0 S25.0 T250.0
G1 X-25.937 Y-7.292 F3000.0
G1 X-25.937 Y-8.021 F3000.0
M280 P0 S90.0 T150.0
G0 X-25.937 Y-11.667 F3000.0
M280 P0 S25.0 T250.0
G1 X-25.937 Y-12.396 F3000.0
G1 X-25.937 Y-13.125 F3000.0
M280 P0 S90.0 T150.0
G0 X-25.937 Y-17.500 F3000.0
M280 P0 S25.0 T250.0
G1 X-25.937 Y-18.229 F3000.0
M280 P0 S90.0 T150.0
G0 X-25.208 Y-24.792 F3000.0
M280 P0 S25.0 T250.0
G1 X-25.208 Y-24.063 F3000.0
G1 X-25.208 Y-23.333 F3000.0
M280 P0 S90.0 T150.0
G0 X-25.208 Y-18.958 F3000.0
M280 P0 S25.0 T250.0
G1 X-25.208 Y-18.229 F3000.0
G1 X-25.208 Y-17.500 F3000.0
M280 P0 S90.0 T150.0
G0 X-25.208 Y-13.854 F3000.0
M280 P0 S25.0 T250.0
G1 X-25.208 Y-13.125 F3000.0
G1 X-25.208 Y-12.396 F3000.0
G1 X-25.208 Y-11.667 F3000.0
M280 P0 S90.0 T150.0
G0 X-25.208 Y-8.750 F3000.0
M280 P0 S25.0 T250.0
G1 X-25.208 Y-8.021 F3000.0
G1 X-25.208 Y-7.292 F3000.0
G1 X-25.208 Y-6.563 F3000.0
M280 P0 S90.0 T150.0
G0 X-25.208 Y-3.646 F3000.0
M280 P0 S25.0 T250.0
G1 X-25.208 Y-2.917 F3000.0
G1 X-25.208 Y-2.188 F3000.0
G1 X-25.208 Y-1.458 F3000.0
M280 P0 S90.0 T150.0
G0 X-25.208 Y1.458 F3000.0
M280 P0 S25.0 T250.0
G1 X-25.208 Y2.188 F3000.0
G1 X-25.208 Y2.917 F3000.0
G1 X-25.208 Y3.646 F3000.0
M280 P0 S90.0 T150.0
G0 X-25.208 Y8.021 F3000.0
M280 P0 S25.0 T250.0
G1 X-25.208 Y8.750 F3000.0
M280 P0 S90.0 T150.0
G0 X-23.750 Y-24.792 F3000.0
M280 P0 S25.0 T250.0
G1 X-23.750 Y-24.063 F3000.0
G1 X-23.750 Y-23.333 F3000.0
M280 P0 S90.0 T150.0
G0 X-23.750 Y-18.229 F3000.0
M280 P0 S25.0 T250.0
G1 X-23.750 Y-17.500 F3000.0
G1 X-23.750 Y-16.771 F3000.0
M280 P0 S90.0 T150.0
G0 X-23.750 Y-13.125 F3000.0
M280 P0 S25.0 T250.0
G1 X-23.750 Y-12.396 F3000.0
G1 X-23.750 Y-11.667 F3000.0
G1 X-23.750 Y-10.938 F3000.0
M280 P0 S90.0 T150.0
G0 X-23.750 Y-8.750 F3000.0
M280 P0 S25.0 T250.0
G1 X-23.750 Y-8.021 F3000.0
G1 X-23.750 Y-7.292 F3000.0
M280 P0 S90.0 T150.0
G0 X-23.750 Y-3.646 F3000.0
M280 P0 S25.0 T250.0
G1 X-23.750 Y-2.917 F3000.0
G1 X-23.750 Y-2.188 F3000.0
G1 X-23.750 Y-1.458 F3000.0
M280 P0 S90.0 T150.0
G0 X-23.750 Y0.729 F3000.0
M280 P0 S25.0 T250.0
G1 X-23.750 Y1.458 F3000.0
G1 X-23.750 Y2.188 F3000.0
G1 X-23.750 Y2.917 F3000.0
M280 P0 S90.0 T150.0
G0 X-23.750 Y6.563 F3000.0
M280 P0 S25.0 T250.0
G1 X-23.750 Y7.292 F3000.0
G1 X-23.750 Y8.021 F3000.0
G1 X-23.750 Y8.750 F3000.0
M280 P0 S90.0 T150.0
G0 X-23.021 Y8.021 F3000.0
M280 P0 S25.0 T250.0
G1 X-23.021 Y7.292 F3000.0
G1 X-23.021 Y6.563 F3000.0
M280 P0 S90.0 T150.0
G0 X-23.021 Y2.917 F3000.0
M280 P0 S25.0 T250.0
G1 X-23.021 Y2.188 F3000.0
G1 X-23.021 Y1.458 F3000.0
M280 P0 S90.0 T150.0
G0 X-23.021 Y-1.458 F3000.0
M280 P0 S25.0 T250.0
G1 X-23.021 Y-2.188 F3000.0
G1 X-23.021 Y-2.917 F3000.0
M280 P0 S90.0 T150.0
G0 X-23.021 Y-6.563 F3000.0
M280 P0 S25.0 T250.0
G1 X-23.021 Y-7.292 F3000.0
G1 X-23.021 Y-8.021 F3000.0
M280 P0 S90.0 T150.0
G0 X-23.021 Y-10.938 F3000.0
M280 P0 S25.0 T250.0
G1 X-23.021 Y-11.667 F3000.0
G1 X-23.021 Y-12.396 F3000.0
M280 P0 S90.0 T150.0
G0 X-23.021 Y-16.771 F3000.0
M280 P0 S25.0 T250.0
G1 X-23.021 Y-17.500 F3000.0
M280 P0 S90.0 T150.0
G0 X-23.021 Y-21.875 F3000.0
M280 P0 S25.0 T250.0
G1 X-23.021 Y-22.604 F3000.0
G1 X-23.021 Y-23.333 F3000.0
M280 P0 S90.0 T150.0
G0 X-22.292 Y-24.063 F3000.0
M280 P0 S25.0 T250.0
G1 X-22.292 Y-23.333 F3000.0
G1 X-22.292 Y-22.604 F3000.0
G1 X-22.292 Y-21.875 F3000.0
M280 P0 S90.0 T150.0
G0 X-22.292 Y-18.229 F3000.0
M280 P0 S25.0 T250.0
G1 X-22.292 Y-17.500 F3000.0
G1 X-22.292 Y-16.771 F3000.0
G1 X-22.292 Y-16.042 F3000.0
M280 P0 S90.0 T150.0
G0 X-22.292 Y-13.125 F3000.0
M280 P0 S25.0 T250.0
G1 X-22.292 Y-12.396 F3000.0
G1 X-22.292 Y-11.667 F3000.0
G1 X-22.292 Y-10.938 F3000.0
M280 P0 S90.0 T150.0
G0 X-22.292 Y-8.750 F3000.0
M280 P0 S25.0 T250.0
G1 X-22.292 Y-8.021 F3000.0
G1 X-22.292 Y-7.292 F3000.0
M280 P0 S90.0 T150.0
G0 X-22.292 Y-3.646 F3000.0
M280 P0 S25.0 T250.0
G1 X-22.292 Y-2.917 F3000.0
G1 X-22.292 Y-2.188 F3000.0
M280 P0 S90.0 T150.0
G0 X-22.292 Y0.729 F3000.0
M280 P0 S25.0 T250.0
G1 X-22.292 Y1.458 F3000.0
G1 X-22.292 Y2.188 F3000.0
M280 P0 S90.0 T150.0
G0 X-22.292 Y5.833 F3000.0
M280 P0 S25.0 T250.0
G1 X-22.292 Y6.563 F3000.0
G1 X-22.292 Y7.292 F3000.0
M280 P0 S90.0 T150.0
G0 X-21.562 Y13.854 F3000.0
M280 P0 S25.0 T250.0
G1 X-21.562 Y13.125 F3000.0
M280 P0 S90.0 T150.0
G0 X-21.562 Y8.021 F3000.0
M280 P0 S25.0 T250.0
G1 X-21.562 Y7.292 F3000.0
G1 X-21.562 Y6.563 F3000.0
G1 X-21.562 Y5.833 F3000.0
M280 P0 S90.0 T150.0
G0 X-21.562 Y2.917 F3000.0
M280 P0 S25.0 T250.0
G1 X-21.562 Y2.188 F3000.0
G1 X-21.562 Y1.458 F3000.0
G1 X-21.562 Y0.729 F3000.0
M280 P0 S90.0 T150.0
G0 X-21.562 Y-1.458 F3000.0
M280 P0 S25.0 T250.0
G1 X-21.562 Y-2.188 F3000.0
G1 X-21.562 Y-2.917 F3000.0
G1 X-21.562 Y-3.646 F3000.0
M280 P0 S90.0 T150.0
G0 X-21.562 Y-5.833 F3000.0
M280 P0 S25.0 T250.0
G1 X-21.562 Y-6.563 F3000.0
G1 X-21.562 Y-7.292 F3000.0
G1 X-21.562 Y-8.021 F3000.0
G1 X-21.562 Y-8.750 F3000.0
M280 P0 S90.0 T150.0
G0 X-21.562 Y-10.208 F3000.0
M280 P0 S25.0 T250.0
G1 X-21.562 Y-10.938 F3000.0
G1 X-21.562 Y-11.667 F3000.0
G1 X-21.562 Y-12.396 F3000.0
M280 P0 S90.0 T150.0
G0 X-21.562 Y-14.583 F3000.0
M280 P0 S25.0 T250.0
G1 X-21.562 Y-15.313 F3000.0
G1 X-21.562 Y-16.042 F3000.0
G1 X-21.562 Y-16.771 F3000.0
G1 X-21.562 Y-17.500 F3000.0
M280 P0 S90.0 T150.0
G0 X-21.562 Y-19.688 F3000.0
M280 P0 S25.0 T250.0
G1 X-21.562 Y-20.417 F3000.0
G1 X-21.562 Y-21.146 F3000.0
G1 X-21.562 Y-21.875 F3000.0
G1 X-21.562 Y-22.604 F3000.0
G1 X-21.562 Y-23.333 F3000.0
M280 P0 S90.0 T150.0
G0 X-20.104 Y13.854 F3000.0
M280 P0 S25.0 T250.0
G1 X-20.104 Y13.125 F3000.0
G1 X-20.104 Y12.396 F3000.0
G1 X-20.104 Y11.667 F3000.0
M280 P0 S90.0 T150.0
G0 X-20.104 Y7.292 F3000.0
M280 P0 S25.0 T250.0
G1 X-20.104 Y6.563 F3000.0
G1 X-20.104 Y5.833 F3000.0
M280 P0 S90.0 T150.0
G0 X-20.104 Y2.188 F3000.0
M280 P0 S25.0 T250.0
G1 X-20.104 Y1.458 F3000.0
G1 X-20.104 Y0.729 F3000.0
G1 X-20.104 Y0.000 F3000.0
M280 P0 S90.0 T150.0
G0 X-20.104 Y-2.188 F3000.0
M280 P0 S25.0 T250.0
G1 X-20.104 Y-2.917 F3000.0
G1 X-20.104 Y-3.646 F3000.0
G1 X-20.104 Y-4.375 F3000.0
M280 P0 S90.0 T150.0
G0 X-20.104 Y-5.833 F3000.0
M280 P0 S25.0 T250.0
G1 X-20.104 Y-6.563 F3000.0
G1 X-20.104 Y-7.292 F3000.0
G1 X-20.104 Y-8.021 F3000.0
M280 P0 S90.0 T150.0
G0 X-20.104 Y-10.208 F3000.0
M280 P0 S25.0 T250.0
G1 X-20.104 Y-10.938 F3000.0
G1 X-20.104 Y-11.667 F3000.0
G1 X-20.104 Y-12.396 F3000.0
M280 P0 S90.0 T150.0
G0 X-20.104 Y-14.583 F3000.0
M280 P0 S25.0 T250.0
G1 X-20.104 Y-15.313 F3000.0
G1 X-20.104 Y-16.042 F3000.0
M280 P0 S90.0 T150.0
G0 X-20.104 Y-18.958 F3000.0
M280 P0 S25.0 T250.0
G1 X-20.104 Y-19.688 F3000.0
G1 X-20.104 Y-20.417 F3000.0
G1 X-20.104 Y-21.146 F3000.0
M280 P0 S90.0 T150.0
G0 X-20.104 Y-26.250 F3000.0
M280 P0 S25.0 T250.0
G1 X-20.104 Y-26.979 F3000.0
G1 X-20.104 Y-27.708 F3000.0
M280 P0 S90.0 T150.0
G0 X-19.375 Y-27.708 F3000.0
M280 P0 S25.0 T250.0
G1 X-19.375 Y-26.979 F3000.0
M280 P0 S90.0 T150.0
G0 X-19.375 Y-21.146 F3000.0
M280 P0 S25.0 T250.0
G1 X-19.375 Y-20.417 F3000.0
M280 P0 S90.0 T150.0
G0 X-19.375 Y-16.771 F3000.0
M280 P0 S25.0 T250.0
G1 X-19.375 Y-16.042 F3000.0
G1 X-19.375 Y-15.313 F3000.0
M280 P0 S90.0 T150.0
G0 X-19.375 Y-13.125 F3000.0
M280 P0 S25.0 T250.0
G1 X-19.375 Y-12.396 F3000.0
G1 X-19.375 Y-11.667 F3000.0
M280 P0 S90.0 T150.0
G0 X-19.375 Y-8.750 F3000.0
M280 P0 S25.0 T250.0
G1 X-19.375 Y-8.021 F3000.0
G1 X-19.375 Y-7.292 F3000.0
M280 P0 S90.0 T150.0
G0 X-19.375 Y-5.104 F3000.0
M280 P0 S25.0 T250.0
G1 X-19.375 Y-4.375 F3000.0
G1 X-19.375 Y-3.646 F3000.0
M280 P0 S90.0 T150.0
G0 X-19.375 Y-0.729 F3000.0
M280 P0 S25.0 T250.0
G1 X-19.375 Y0.000 F3000.0
G1 X-19.375 Y0.729 F3000.0
M280 P0 S90.0 T150.0
G0 X-19.375 Y4.375 F3000.0
M280 P0 S25.0 T250.0
G1 X-19.375 Y5.104 F3000.0
G1 X-19.375 Y5.833 F3000.0
G1 X-19.375 Y6.563 F3000.0
M280 P0 S90.0 T150.0
G0 X-19.375 Y10.938 F3000.0
M280 P0 S25.0 T250.0
G1 X-19.375 Y11.667 F3000.0
M280 P0 S90.0 T150.0
G0 X-18.646 Y12.396 F3000.0
M280 P0 S25.0 T250.0
G1 X-18.646 Y11.667 F3000.0
G1 X-18.646 Y10.938 F3000.0
G1 X-18.646 Y10.208 F3000.0
M280 P0 S90.0 T150.0
G0 X-18.646 Y6.563 F3000.0
M280 P0 S25.0 T250.0
G1 X-18.646 Y5.833 F3000.0
G1 X-18.646 Y5.104 F3000.0
G1 X-18.646 Y4.375 F3000.0
M280 P0 S90.0 T150.0
G0 X-18.646 Y1.458 F3000.0
M280 P0 S25.0 T250.0
G1 X-18.646 Y0.729 F3000.0
G1 X-18.646 Y0.000 F3000.0
G1 X-18.646 Y-0.729 F3000.0
M280 P0 S90.0 T150.0
G0 X-18.646 Y-2.917 F3000.0
M280 P0 S25.0 T250.0
G1 X-18.646 Y-3.646 F3000.0
G1 X-18.646 Y-4.375 F3000.0
G1 X-18.646 Y-5.104 F3000.0
M280 P0 S90.0 T150.0
G0 X-18.646 Y-5.833 F3000.0
M280 P0 S25.0 T250.0
G1 X-18.646 Y-6.563 F3000.0
G1 X-18.646 Y-7.292 F3000.0
G1 X-18.646 Y-8.021 F3000.0
M280 P0 S90.0 T150.0
G0 X-18.646 Y-10.208 F3000.0
M280 P0 S25.0 T250.0
G1 X-18.646 Y-10.938 F3000.0
G1 X-18.646 Y-11.667 F3000.0
G1 X-18.646 Y-12.396 F3000.0
M280 P0 S90.0 T150.0
G0 X-18.646 Y-13.854 F3000.0
M280 P0 S25.0 T250.0
G1 X-18.646 Y-14.583 F3000.0
G1 X-18.646 Y-15.313 F3000.0
M280 P0 S90.0 T150.0
G0 X-18.646 Y-18.229 F3000.0
M280 P0 S25.0 T250.0
G1 X-18.646 Y-18.958 F3000.0
G1 X-18.646 Y-19.688 F3000.0
M280 P0 S90.0 T150.0
G0 X-18.646 Y-24.792 F3000.0
M280 P0 S25.0 T250.0
G1 X-18.646 Y-25.521 F3000.0
G1 X-18.646 Y-26.250 F3000.0
M280 P0 S90.0 T150.0
G0 X-17.917 Y-26.979 F3000.0
M280 P0 S25.0 T250.0
G1 X-17.917 Y-26.250 F3000.0
G1 X-17.917 Y-25.521 F3000.0
G1 X-17.917 Y-24.792 F3000.0
M280 P0 S90.0 T150.0
G0 X-17.917 Y-20.417 F3000.0
M280 P0 S25.0 T250.0
G1 X-17.917 Y-19.688 F3000.0
G1 X-17.917 Y-18.958 F3000.0
G1 X-17.917 Y-18.229 F3000.0
M280 P0 S90.0 T150.0
G0 X-17.917 Y-16.771 F3000.0
M280 P0 S25.0 T250.0
G1 X-17.917 Y-16.042 F3000.0
G1 X-17.917 Y-15.313 F3000.0
G1 X-17.917 Y-14.583 F3000.0
G1 X-17.917 Y-13.854 F3000.0
M280 P0 S90.0 T150.0
G0 X-17.917 Y-13.125 F3000.0
M280 P0 S25.0 T250.0
G1 X-17.917 Y-12.396 F3000.0
G1 X-17.917 Y-11.667 F3000.0
G1 X-17.917 Y-10.938 F3000.0
M280 P0 S90.0 T150.0
G0 X-17.917 Y-9.479 F3000.0
M280 P0 S25.0 T250.0
G1 X-17.917 Y-8.750 F3000.0
G1 X-17.917 Y-8.021 F3000.0
G1 X-17.917 Y-7.292 F3000.0
G1 X-17.917 Y-6.563 F3000.0
M280 P0 S90.0 T150.0
G0 X-17.917 Y-5.833 F3000.0
M280 P0 S25.0 T250.0
G1 X-17.917 Y-5.104 F3000.0
G1 X-17.917 Y-4.375 F3000.0
G1 X-17.917 Y-3.646 F3000.0
M280 P0 S90.0 T150.0
G0 X-17.917 Y-1.458 F3000.0
M280 P0 S25.0 T250.0
G1 X-17.917 Y-0.729 F3000.0
G1 X-17.917 Y0.000 F3000.0
G1 X-17.917 Y0.729 F3000.0
M280 P0 S90.0 T150.0
G0 X-17.917 Y2.917 F3000.0
M280 P0 S25.0 T250.0
G1 X-17.917 Y3.646 F3000.0
G1 X-17.917 Y4.375 F3000.0
G1 X-17.917 Y5.104 F3000.0
G1 X-17.917 Y5.833 F3000.0
M280 P0 S90.0 T150.0
G0 X-17.917 Y8.750 F3000.0
M280 P0 S25.0 T250.0
G1 X-17.917 Y9.479 F3000.0
G1 X-17.917 Y10.208 F3000.0
G1 X-17.917 Y10.938 F3000.0
M280 P0 S90.0 T150.0
G0 X-16.458 Y-32.083 F3000.0
M280 P0 S25.0 T250.0
G1 X-16.458 Y-31.354 F3000.0
M280 P0 S90.0 T150.0
G0 X-16.458 Y-24.792 F3000.0
M280 P0 S25.0 T250.0
G1 X-16.458 Y-24.063 F3000.0
G1 X-16.458 Y-23.333 F3000.0
M280 P0 S90.0 T150.0
G0 X-16.458 Y-20.417 F3000.0
M280 P0 S25.0 T250.0
G1 X-16.458 Y-19.688 F3000.0
G1 X-16.458 Y-18.958 F3000.0
G1 X-16.458 Y-18.229 F3000.0
M280 P0 S90.0 T150.0
G0 X-16.458 Y-16.042 F3000.0
M280 P0 S25.0 T250.0
G1 X-16.458 Y-15.313 F3000.0
G1 X-16.458 Y-14.583 F3000.0
G1 X-16.458 Y-13.854 F3000.0
M280 P0 S90.0 T150.0
G0 X-16.458 Y-12.396 F3000.0
M280 P0 S25.0 T250.0
G1 X-16.458 Y-11.667 F3000.0
G1 X-16.458 Y-10.938 F3000.0
G1 X-16.458 Y-10.208 F3000.0
M280 P0 S90.0 T150.0
G0 X-16.458 Y-9.479 F3000.0
M280 P0 S25.0 T250.0
G1 X-16.458 Y-8.750 F3000.0
G1 X-16.458 Y-8.021 F3000.0
G1 X-16.458 Y-7.292 F3000.0
G1 X-16.458 Y-6.563 F3000.0
M280 P0 S90.0 T150.0
G0 X-16.458 Y-5.833 F3000.0
M280 P0 S25.0 T250.0
G1 X-16.458 Y-5.104 F3000.0
G1 X-16.458 Y-4.375 F3000.0
G1 X-16.458 Y-3.646 F3000.0
M280 P0 S90.0 T150.0
G0 X-16.458 Y-2.188 F3000.0
M280 P0 S25.0 T250.0
G1 X-16.458 Y-1.458 F3000.0
G1 X-16.458 Y-0.729 F3000.0
G1 X-16.458 Y0.000 F3000.0
M280 P0 S90.0 T150.0
G0 X-16.458 Y1.458 F3000.0
M280 P0 S25.0 T250.0
G1 X-16.458 Y2.188 F3000.0
G1 X-16.458 Y2.917 F3000.0
G1 X-16.458 Y3.646 F3000.0
G1 X-16.458 Y4.375 F3000.0
M280 P0 S90.0 T150.0
G0 X-16.458 Y7.292 F3000.0
M280 P0 S25.0 T250.0
G1 X-16.458 Y8.021 F3000.0
G1 X-16.458 Y8.750 F3000.0
G1 X-16.458 Y9.479 F3000.0
M280 P0 S90.0 T150.0
G0 X-16.458 Y13.854 F3000.0
M280 P0 S25.0 T250.0
G1 X-16.458 Y14.583 F3000.0
G1 X-16.458 Y15.313 F3000.0
G1 X-16.458 Y16.042 F3000.0
G1 X-16.458 Y16.771 F3000.0
M280 P0 S90.0 T150.0
G0 X-15.729 Y16.771 F3000.0
M280 P0 S25.0 T250.0
G1 X-15.729 Y16.042 F3000.0
G1 X-15.729 Y15.313 F3000.0
G1 X-15.729 Y14.583 F3000.0
M280 P0 S90.0 T150.0
G0 X-15.729 Y9.479 F3000.0
M280 P0 S25.0 T250.0
G1 X-15.729 Y8.750 F3000.0
M280 P0 S90.0 T150.0
G0 X-15.729 Y8.021 F3000.0
M280 P0 S25.0 T250.0
G1 X-15.729 Y7.292 F3000.0
M280 P0 S90.0 T150.0
G0 X-15.729 Y3.646 F3000.0
M280 P0 S25.0 T250.0
G1 X-15.729 Y2.917 F3000.0
G1 X-15.729 Y2.188 F3000.0
G1 X-15.729 Y1.458 F3000.0
M280 P0 S90.0 T150.0
G0 X-15.729 Y0.000 F3000.0
M280 P0 S25.0 T250.0
G1 X-15.729 Y-0.729 F3000.0
G1 X-15.729 Y-1.458 F3000.0
M280 P0 S90.0 T150.0
G0 X-15.729 Y-3.646 F3000.0
M280 P0 S25.0 T250.0
G1 X-15.729 Y-4.375 F3000.0
G1 X-15.729 Y-5.104 F3000.0
M280 P0 S90.0 T150.0
G0 X-15.729 Y-6.563 F3000.0
M280 P0 S25.0 T250.0
G1 X-15.729 Y-7.292 F3000.0
G1 X-15.729 Y-8.021 F3000.0
M280 P0 S90.0 T150.0
G0 X-15.729 Y-9.479 F3000.0
M280 P0 S25.0 T250.0
G1 X-15.729 Y-10.208 F3000.0
G1 X-15.729 Y-10.938 F3000.0
M280 P0 S90.0 T150.0
G0 X-15.729 Y-13.125 F3000.0
M280 P0 S25.0 T250.0
G1 X-15.729 Y-13.854 F3000.0
G1 X-15.729 Y-14.583 F3000.0
M280 P0 S90.0 T150.0
G0 X-15.729 Y-17.500 F3000.0
M280 P0 S25.0 T250.0
G1 X-15.729 Y-18.229 F3000.0
G1 X-15.729 Y-18.958 F3000.0
M280 P0 S90.0 T150.0
G0 X-15.729 Y-21.875 F3000.0
M280 P0 S25.0 T250.0
G1 X-15.729 Y-22.604 F3000.0
G1 X-15.729 Y-23.333 F3000.0
M280 P0 S90.0 T150.0
G0 X-15.729 Y-30.625 F3000.0
