;Generated with Makelangelo 7.76.1
; 2025-11-12 at 19:01:01 ART
;FLAVOR:Marlin-polargraph
;MINX:-207.938
;MINY:-138.234
;MAXX:211.543
;MAXY:63.359
;Start of user gcode
G0 Y0
;End of user gcode
G28 X Y
M201 X100.0 Y100.0
M203 X3000.0 Y3000.0
M204 S100.0
M205 X10 Y10
M280 P0 S90.0 T150.0
M0 Ready black and click
G0 X-158.935 Y61.438 F3000.0
M280 P0 S25.0 T250.0
G1 X-158.935 Y52.047 F3000.0
G1 X-158.935 Y52.047 F3000.0
G1 X-159.442 Y52.654 F3000.0
G1 X-160.000 Y53.199 F3000.0
G1 X-160.609 Y53.684 F3000.0
G1 X-161.270 Y54.107 F3000.0
G1 X-161.982 Y54.469 F3000.0
G1 X-161.982 Y54.469 F3000.0
G1 X-162.726 Y54.773 F3000.0
G1 X-163.482 Y55.009 F3000.0
G1 X-164.251 Y55.177 F3000.0
G1 X-165.032 Y55.279 F3000.0
G1 X-165.826 Y55.313 F3000.0
G1 X-165.826 Y55.313 F3000.0
G1 X-167.208 Y55.216 F3000.0
G1 X-168.481 Y54.925 F3000.0
G1 X-169.643 Y54.441 F3000.0
G1 X-170.696 Y53.763 F3000.0
G1 X-171.638 Y52.891 F3000.0
G1 X-171.638 Y52.891 F3000.0
G1 X-172.437 Y51.883 F3000.0
G1 X-173.058 Y50.786 F3000.0
G1 X-173.502 Y49.598 F3000.0
G1 X-173.768 Y48.321 F3000.0
G1 X-173.857 Y46.953 F3000.0
G1 X-173.857 Y46.953 F3000.0
G1 X-173.767 Y45.583 F3000.0
G1 X-173.497 Y44.311 F3000.0
G1 X-173.047 Y43.136 F3000.0
G1 X-172.417 Y42.058 F3000.0
G1 X-171.607 Y41.078 F3000.0
G1 X-171.607 Y41.078 F3000.0
G1 X-170.646 Y40.246 F3000.0
G1 X-169.574 Y39.598 F3000.0
G1 X-168.393 Y39.136 F3000.0
G1 X-167.102 Y38.858 F3000.0
G1 X-165.701 Y38.766 F3000.0
G1 X-165.701 Y38.766 F3000.0
G1 X-164.937 Y38.800 F3000.0
G1 X-164.183 Y38.903 F3000.0
G1 X-163.439 Y39.075 F3000.0
G1 X-162.706 Y39.316 F3000.0
G1 X-161.982 Y39.625 F3000.0
G1 X-161.982 Y39.625 F3000.0
G1 X-161.285 Y39.993 F3000.0
G1 X-160.632 Y40.410 F3000.0
G1 X-160.023 Y40.876 F3000.0
G1 X-159.457 Y41.390 F3000.0
G1 X-158.935 Y41.953 F3000.0
G1 X-158.935 Y32.594 F3000.0
G1 X-158.935 Y32.594 F3000.0
G1 X-159.362 Y32.454 F3000.0
G1 X-159.780 Y32.324 F3000.0
G1 X-160.189 Y32.202 F3000.0
G1 X-160.590 Y32.089 F3000.0
G1 X-160.982 Y31.984 F3000.0
G1 X-160.982 Y31.984 F3000.0
G1 X-161.362 Y31.881 F3000.0
G1 X-161.739 Y31.782 F3000.0
G1 X-162.114 Y31.688 F3000.0
G1 X-162.487 Y31.599 F3000.0
G1 X-162.857 Y31.516 F3000.0
G1 X-162.857 Y31.516 F3000.0
G1 X-163.146 Y31.456 F3000.0
G1 X-163.437 Y31.403 F3000.0
G1 X-163.731 Y31.356 F3000.0
G1 X-164.027 Y31.316 F3000.0
G1 X-164.326 Y31.281 F3000.0
G1 X-164.326 Y31.281 F3000.0
G1 X-164.622 Y31.253 F3000.0
G1 X-164.923 Y31.231 F3000.0
G1 X-165.229 Y31.216 F3000.0
G1 X-165.541 Y31.206 F3000.0
G1 X-165.857 Y31.203 F3000.0
G1 X-165.857 Y31.203 F3000.0
G1 X-167.109 Y31.249 F3000.0
G1 X-168.342 Y31.386 F3000.0
G1 X-169.554 Y31.614 F3000.0
G1 X-170.747 Y31.933 F3000.0
G1 X-171.919 Y32.344 F3000.0
G1 X-171.919 Y32.344 F3000.0
G1 X-173.060 Y32.839 F3000.0
G1 X-174.157 Y33.411 F3000.0
G1 X-175.210 Y34.061 F3000.0
G1 X-176.219 Y34.789 F3000.0
G1 X-177.185 Y35.594 F3000.0
G1 X-177.185 Y35.594 F3000.0
G1 X-178.121 Y36.519 F3000.0
G1 X-178.955 Y37.496 F3000.0
G1 X-179.686 Y38.524 F3000.0
G1 X-180.315 Y39.604 F3000.0
G1 X-180.841 Y40.734 F3000.0
G1 X-180.841 Y40.734 F3000.0
G1 X-181.263 Y41.915 F3000.0
G1 X-181.591 Y43.132 F3000.0
G1 X-181.826 Y44.385 F3000.0
G1 X-181.966 Y45.674 F3000.0
G1 X-182.013 Y47.000 F3000.0
G1 X-182.013 Y47.000 F3000.0
G1 X-181.968 Y48.223 F3000.0
G1 X-181.833 Y49.430 F3000.0
G1 X-181.608 Y50.621 F3000.0
G1 X-181.293 Y51.795 F3000.0
G1 X-180.888 Y52.953 F3000.0
G1 X-180.888 Y52.953 F3000.0
G1 X-180.391 Y54.082 F3000.0
G1 X-179.811 Y55.156 F3000.0
G1 X-179.148 Y56.174 F3000.0
G1 X-178.403 Y57.138 F3000.0
G1 X-177.576 Y58.047 F3000.0
G1 X-177.576 Y58.047 F3000.0
G1 X-176.683 Y58.886 F3000.0
G1 X-175.728 Y59.654 F3000.0
G1 X-174.713 Y60.351 F3000.0
G1 X-173.636 Y60.977 F3000.0
G1 X-172.498 Y61.531 F3000.0
G1 X-172.498 Y61.531 F3000.0
G1 X-171.321 Y62.007 F3000.0
G1 X-170.130 Y62.384 F3000.0
G1 X-168.924 Y62.662 F3000.0
G1 X-167.703 Y62.841 F3000.0
G1 X-166.466 Y62.922 F3000.0
G1 X-166.466 Y62.922 F3000.0
G1 X-166.429 Y62.922 F3000.0
G1 X-166.391 Y62.922 F3000.0
G1 X-166.354 Y62.922 F3000.0
G1 X-166.316 Y62.922 F3000.0
G1 X-166.279 Y62.922 F3000.0
G1 X-166.279 Y62.922 F3000.0
G1 X-166.242 Y62.922 F3000.0
G1 X-166.206 Y62.922 F3000.0
G1 X-166.172 Y62.922 F3000.0
G1 X-166.139 Y62.922 F3000.0
G1 X-166.107 Y62.922 F3000.0
G1 X-166.107 Y62.922 F3000.0
G1 X-165.355 Y62.906 F3000.0
G1 X-164.612 Y62.857 F3000.0
G1 X-163.878 Y62.776 F3000.0
G1 X-163.152 Y62.662 F3000.0
G1 X-162.435 Y62.516 F3000.0
G1 X-162.435 Y62.516 F3000.0
G1 X-161.725 Y62.346 F3000.0
G1 X-161.020 Y62.151 F3000.0
G1 X-160.320 Y61.929 F3000.0
G1 X-159.625 Y61.681 F3000.0
G1 X-158.935 Y61.406 F3000.0
G1 X-158.935 Y61.438 F3000.0
G1 X-158.935 Y61.438 F3000.0
M280 P0 S90.0 T150.0
G0 X-136.785 Y55.516 F3000.0
M280 P0 S25.0 T250.0
G1 X-146.254 Y55.516 F3000.0
G1 X-146.254 Y50.484 F3000.0
G1 X-137.660 Y50.484 F3000.0
G1 X-137.660 Y43.844 F3000.0
G1 X-146.254 Y43.844 F3000.0
G1 X-146.254 Y32.000 F3000.0
G1 X-154.098 Y32.000 F3000.0
G1 X-154.098 Y62.156 F3000.0
G1 X-136.785 Y62.156 F3000.0
G1 X-136.785 Y55.516 F3000.0
G1 X-136.785 Y55.516 F3000.0
G1 X-136.785 Y55.516 F3000.0
M280 P0 S90.0 T150.0
G0 X-132.418 Y32.000 F3000.0
M280 P0 S25.0 T250.0
G1 X-132.418 Y62.156 F3000.0
G1 X-120.418 Y62.156 F3000.0
G1 X-120.418 Y62.156 F3000.0
G1 X-118.541 Y62.051 F3000.0
G1 X-116.813 Y61.759 F3000.0
G1 X-115.231 Y61.281 F3000.0
G1 X-113.798 Y60.616 F3000.0
G1 X-112.511 Y59.766 F3000.0
G1 X-112.511 Y59.766 F3000.0
G1 X-111.414 Y58.708 F3000.0
G1 X-110.561 Y57.423 F3000.0
G1 X-109.952 Y55.911 F3000.0
G1 X-109.586 Y54.171 F3000.0
G1 X-109.464 Y52.203 F3000.0
G1 X-109.464 Y52.203 F3000.0
G1 X-109.576 Y50.186 F3000.0
G1 X-109.909 Y48.398 F3000.0
G1 X-110.466 Y46.839 F3000.0
G1 X-111.244 Y45.508 F3000.0
G1 X-112.246 Y44.406 F3000.0
G1 X-112.246 Y44.406 F3000.0
G1 X-113.451 Y43.523 F3000.0
G1 X-114.843 Y42.836 F3000.0
G1 X-116.421 Y42.346 F3000.0
G1 X-118.186 Y42.051 F3000.0
G1 X-120.136 Y41.953 F3000.0
G1 X-124.574 Y42.000 F3000.0
G1 X-124.574 Y32.000 F3000.0
G1 X-132.418 Y32.000 F3000.0
G1 X-132.418 Y32.000 F3000.0
G1 X-132.418 Y32.000 F3000.0
M280 P0 S90.0 T150.0
G0 X-124.574 Y55.844 F3000.0
M280 P0 S25.0 T250.0
G1 X-124.574 Y48.313 F3000.0
G1 X-123.261 Y48.313 F3000.0
G1 X-123.261 Y48.313 F3000.0
G1 X-122.426 Y48.319 F3000.0
G1 X-121.621 Y48.365 F3000.0
G1 X-120.846 Y48.449 F3000.0
G1 X-120.101 Y48.573 F3000.0
G1 X-119.386 Y48.734 F3000.0
G1 X-119.386 Y48.734 F3000.0
G1 X-118.751 Y49.013 F3000.0
G1 X-118.256 Y49.474 F3000.0
G1 X-117.903 Y50.118 F3000.0
G1 X-117.691 Y50.944 F3000.0
G1 X-117.621 Y51.953 F3000.0
G1 X-117.621 Y51.953 F3000.0
G1 X-117.688 Y52.997 F3000.0
G1 X-117.891 Y53.853 F3000.0
G1 X-118.228 Y54.522 F3000.0
G1 X-118.701 Y55.003 F3000.0
G1 X-119.308 Y55.297 F3000.0
G1 X-119.308 Y55.297 F3000.0
G1 X-120.001 Y55.477 F3000.0
G1 X-120.743 Y55.617 F3000.0
G1 X-121.534 Y55.717 F3000.0
G1 X-122.373 Y55.777 F3000.0
G1 X-123.261 Y55.797 F3000.0
G1 X-124.574 Y55.844 F3000.0
G1 X-124.574 Y55.844 F3000.0
G1 X-124.574 Y55.844 F3000.0
M280 P0 S90.0 T150.0
G0 X-92.258 Y32.000 F3000.0
M280 P0 S25.0 T250.0
G1 X-92.258 Y62.156 F3000.0
G1 X-84.414 Y62.156 F3000.0
G1 X-70.054 Y43.719 F3000.0
G1 X-69.976 Y43.719 F3000.0
G1 X-69.976 Y62.156 F3000.0
G1 X-62.133 Y62.156 F3000.0
G1 X-62.133 Y32.000 F3000.0
G1 X-69.976 Y32.000 F3000.0
G1 X-84.336 Y50.484 F3000.0
G1 X-84.414 Y50.484 F3000.0
G1 X-84.414 Y32.000 F3000.0
G1 X-92.258 Y32.000 F3000.0
G1 X-92.258 Y32.000 F3000.0
G1 X-92.258 Y32.000 F3000.0
M280 P0 S90.0 T150.0
G0 X-43.346 Y44.594 F3000.0
M280 P0 S25.0 T250.0
G1 X-59.377 Y44.594 F3000.0
G1 X-59.377 Y47.594 F3000.0
G1 X-43.346 Y47.594 F3000.0
G1 X-43.346 Y44.594 F3000.0
G1 X-43.346 Y44.594 F3000.0
G1 X-43.346 Y44.594 F3000.0
M280 P0 S90.0 T150.0
G0 X-51.377 Y62.953 F3000.0
M280 P0 S25.0 T250.0
G1 X-51.377 Y62.953 F3000.0
G1 X-50.128 Y62.874 F3000.0
G1 X-48.942 Y62.661 F3000.0
G1 X-47.820 Y62.314 F3000.0
G1 X-46.762 Y61.833 F3000.0
G1 X-45.768 Y61.219 F3000.0
G1 X-45.768 Y61.219 F3000.0
G1 X-44.896 Y60.479 F3000.0
G1 X-44.218 Y59.624 F3000.0
G1 X-43.733 Y58.652 F3000.0
G1 X-43.443 Y57.564 F3000.0
G1 X-43.346 Y56.359 F3000.0
G1 X-43.346 Y56.359 F3000.0
G1 X-43.443 Y55.155 F3000.0
G1 X-43.733 Y54.067 F3000.0
G1 X-44.218 Y53.095 F3000.0
G1 X-44.896 Y52.239 F3000.0
G1 X-45.768 Y51.500 F3000.0
G1 X-45.768 Y51.500 F3000.0
G1 X-46.762 Y50.887 F3000.0
G1 X-47.820 Y50.410 F3000.0
G1 X-48.942 Y50.069 F3000.0
G1 X-50.128 Y49.865 F3000.0
G1 X-51.377 Y49.797 F3000.0
G1 X-51.377 Y49.797 F3000.0
G1 X-52.626 Y49.865 F3000.0
G1 X-53.812 Y50.069 F3000.0
G1 X-54.934 Y50.410 F3000.0
G1 X-55.992 Y50.887 F3000.0
G1 X-56.986 Y51.500 F3000.0
G1 X-56.986 Y51.500 F3000.0
G1 X-57.847 Y52.239 F3000.0
G1 X-58.516 Y53.095 F3000.0
G1 X-58.995 Y54.067 F3000.0
G1 X-59.281 Y55.155 F3000.0
G1 X-59.377 Y56.359 F3000.0
G1 X-59.377 Y56.359 F3000.0
G1 X-59.281 Y57.564 F3000.0
G1 X-58.995 Y58.652 F3000.0
G1 X-58.516 Y59.624 F3000.0
G1 X-57.847 Y60.479 F3000.0
G1 X-56.986 Y61.219 F3000.0
G1 X-56.986 Y61.219 F3000.0
G1 X-55.992 Y61.832 F3000.0
G1 X-54.934 Y62.309 F3000.0
G1 X-53.812 Y62.649 F3000.0
G1 X-52.626 Y62.854 F3000.0
G1 X-51.377 Y62.922 F3000.0
G1 X-51.377 Y62.953 F3000.0
G1 X-51.377 Y62.953 F3000.0
M280 P0 S90.0 T150.0
G0 X-51.377 Y59.156 F3000.0
M280 P0 S25.0 T250.0
G1 X-51.377 Y59.156 F3000.0
G1 X-51.862 Y59.113 F3000.0
G1 X-52.317 Y59.006 F3000.0
G1 X-52.742 Y58.837 F3000.0
G1 X-53.137 Y58.606 F3000.0
G1 X-53.502 Y58.313 F3000.0
G1 X-53.502 Y58.313 F3000.0
G1 X-53.817 Y57.979 F3000.0
G1 X-54.062 Y57.618 F3000.0
G1 X-54.237 Y57.227 F3000.0
G1 X-54.342 Y56.808 F3000.0
G1 X-54.377 Y56.359 F3000.0
G1 X-54.377 Y56.359 F3000.0
G1 X-54.342 Y55.911 F3000.0
G1 X-54.237 Y55.489 F3000.0
G1 X-54.062 Y55.096 F3000.0
G1 X-53.817 Y54.729 F3000.0
G1 X-53.502 Y54.391 F3000.0
G1 X-53.502 Y54.391 F3000.0
G1 X-53.137 Y54.104 F3000.0
G1 X-52.742 Y53.881 F3000.0
G1 X-52.317 Y53.721 F3000.0
G1 X-51.862 Y53.626 F3000.0
G1 X-51.377 Y53.594 F3000.0
G1 X-51.377 Y53.594 F3000.0
G1 X-50.881 Y53.626 F3000.0
G1 X-50.417 Y53.721 F3000.0
G1 X-49.986 Y53.881 F3000.0
G1 X-49.587 Y54.104 F3000.0
G1 X-49.221 Y54.391 F3000.0
G1 X-49.221 Y54.391 F3000.0
G1 X-48.906 Y54.729 F3000.0
G1 X-48.661 Y55.096 F3000.0
G1 X-48.486 Y55.489 F3000.0
G1 X-48.381 Y55.911 F3000.0
G1 X-48.346 Y56.359 F3000.0
G1 X-48.346 Y56.359 F3000.0
G1 X-48.381 Y56.808 F3000.0
G1 X-48.486 Y57.227 F3000.0
G1 X-48.661 Y57.618 F3000.0
G1 X-48.906 Y57.979 F3000.0
G1 X-49.221 Y58.313 F3000.0
G1 X-49.221 Y58.313 F3000.0
G1 X-49.587 Y58.605 F3000.0
G1 X-49.986 Y58.833 F3000.0
G1 X-50.417 Y58.995 F3000.0
G1 X-50.881 Y59.092 F3000.0
G1 X-51.377 Y59.125 F3000.0
G1 X-51.377 Y59.156 F3000.0
G1 X-51.377 Y59.156 F3000.0
M280 P0 S90.0 T150.0
G0 X-29.461 Y63.359 F3000.0
M280 P0 S25.0 T250.0
G1 X-29.461 Y63.359 F3000.0
G1 X-27.938 Y63.257 F3000.0
G1 X-26.469 Y62.987 F3000.0
G1 X-25.053 Y62.549 F3000.0
G1 X-23.691 Y61.944 F3000.0
G1 X-22.383 Y61.172 F3000.0
G1 X-22.383 Y61.172 F3000.0
G1 X-21.230 Y60.234 F3000.0
G1 X-20.333 Y59.119 F3000.0
G1 X-19.693 Y57.829 F3000.0
G1 X-19.308 Y56.362 F3000.0
G1 X-19.180 Y54.719 F3000.0
G1 X-19.180 Y54.719 F3000.0
G1 X-19.234 Y53.778 F3000.0
G1 X-19.395 Y52.879 F3000.0
G1 X-19.664 Y52.022 F3000.0
G1 X-20.040 Y51.209 F3000.0
G1 X-20.524 Y50.438 F3000.0
G1 X-20.524 Y50.438 F3000.0
G1 X-21.091 Y49.735 F3000.0
G1 X-21.716 Y49.128 F3000.0
G1 X-22.401 Y48.615 F3000.0
G1 X-23.144 Y48.198 F3000.0
G1 X-23.946 Y47.875 F3000.0
G1 X-23.946 Y47.844 F3000.0
G1 X-23.946 Y47.844 F3000.0
G1 X-22.901 Y47.430 F3000.0
G1 X-21.943 Y46.926 F3000.0
G1 X-21.071 Y46.333 F3000.0
G1 X-20.286 Y45.649 F3000.0
G1 X-19.586 Y44.875 F3000.0
G1 X-19.586 Y44.875 F3000.0
G1 X-18.996 Y44.025 F3000.0
G1 X-18.536 Y43.100 F3000.0
G1 X-18.208 Y42.100 F3000.0
G1 X-18.011 Y41.025 F3000.0
G1 X-17.946 Y39.875 F3000.0
G1 X-17.946 Y39.875 F3000.0
G1 X-18.060 Y38.364 F3000.0
G1 X-18.403 Y36.995 F3000.0
G1 X-18.975 Y35.767 F3000.0
G1 X-19.776 Y34.680 F3000.0
G1 X-20.805 Y33.734 F3000.0
G1 X-20.805 Y33.734 F3000.0
G1 X-21.970 Y32.930 F3000.0
G1 X-23.178 Y32.254 F3000.0
G1 X-24.428 Y31.708 F3000.0
G1 X-25.720 Y31.289 F3000.0
G1 X-27.055 Y31.000 F3000.0
G1 X-27.055 Y31.000 F3000.0
G1 X-27.299 Y30.954 F3000.0
G1 X-27.543 Y30.915 F3000.0
G1 X-27.786 Y30.884 F3000.0
G1 X-28.030 Y30.860 F3000.0
G1 X-28.274 Y30.844 F3000.0
G1 X-28.274 Y30.844 F3000.0
G1 X-28.511 Y30.827 F3000.0
G1 X-28.749 Y30.814 F3000.0
G1 X-28.986 Y30.804 F3000.0
G1 X-29.224 Y30.799 F3000.0
G1 X-29.461 Y30.797 F3000.0
G1 X-29.461 Y30.797 F3000.0
G1 X-29.700 Y30.799 F3000.0
G1 X-29.939 Y30.804 F3000.0
G1 X-30.180 Y30.814 F3000.0
G1 X-30.421 Y30.827 F3000.0
G1 X-30.665 Y30.844 F3000.0
G1 X-30.665 Y30.844 F3000.0
G1 X-30.903 Y30.860 F3000.0
G1 X-31.142 Y30.884 F3000.0
G1 X-31.383 Y30.915 F3000.0
G1 X-31.625 Y30.954 F3000.0
G1 X-31.868 Y31.000 F3000.0
G1 X-31.868 Y31.000 F3000.0
G1 X-33.203 Y31.289 F3000.0
G1 X-34.495 Y31.708 F3000.0
G1 X-35.745 Y32.254 F3000.0
G1 X-36.953 Y32.930 F3000.0
G1 X-38.118 Y33.734 F3000.0
G1 X-38.118 Y33.734 F3000.0
G1 X-39.147 Y34.680 F3000.0
G1 X-39.948 Y35.767 F3000.0
G1 X-40.520 Y36.995 F3000.0
G1 X-40.863 Y38.364 F3000.0
G1 X-40.977 Y39.875 F3000.0
G1 X-40.977 Y39.875 F3000.0
G1 X-40.911 Y41.025 F3000.0
G1 X-40.712 Y42.100 F3000.0
G1 X-40.381 Y43.100 F3000.0
G1 X-39.917 Y44.025 F3000.0
G1 X-39.321 Y44.875 F3000.0
G1 X-39.321 Y44.875 F3000.0
G1 X-38.617 Y45.647 F3000.0
G1 X-37.831 Y46.325 F3000.0
G1 X-36.962 Y46.909 F3000.0
G1 X-36.011 Y47.400 F3000.0
G1 X-34.977 Y47.797 F3000.0
G1 X-34.977 Y47.922 F3000.0
G1 X-34.977 Y47.922 F3000.0
G1 X-35.779 Y48.228 F3000.0
G1 X-36.522 Y48.632 F3000.0
G1 X-37.206 Y49.135 F3000.0
G1 X-37.832 Y49.737 F3000.0
G1 X-38.399 Y50.438 F3000.0
G1 X-38.399 Y50.438 F3000.0
G1 X-38.883 Y51.209 F3000.0
G1 X-39.259 Y52.022 F3000.0
G1 X-39.528 Y52.879 F3000.0
G1 X-39.689 Y53.778 F3000.0
G1 X-39.743 Y54.719 F3000.0
G1 X-39.743 Y54.719 F3000.0
G1 X-39.615 Y56.362 F3000.0
G1 X-39.230 Y57.829 F3000.0
G1 X-38.590 Y59.119 F3000.0
G1 X-37.693 Y60.234 F3000.0
G1 X-36.540 Y61.172 F3000.0
G1 X-36.540 Y61.172 F3000.0
G1 X-35.231 Y61.943 F3000.0
G1 X-33.870 Y62.542 F3000.0
G1 X-32.454 Y62.970 F3000.0
G1 X-30.985 Y63.227 F3000.0
G1 X-29.461 Y63.313 F3000.0
G1 X-29.461 Y63.359 F3000.0
G1 X-29.461 Y63.359 F3000.0
M280 P0 S90.0 T150.0
G0 X-29.461 Y44.688 F3000.0
M280 P0 S25.0 T250.0
G1 X-29.461 Y44.688 F3000.0
G1 X-30.038 Y44.626 F3000.0
G1 X-30.581 Y44.480 F3000.0
G1 X-31.091 Y44.249 F3000.0
G1 X-31.566 Y43.933 F3000.0
G1 X-32.008 Y43.531 F3000.0
G1 X-32.008 Y43.531 F3000.0
G1 X-32.385 Y43.075 F3000.0
G1 X-32.678 Y42.581 F3000.0
G1 X-32.888 Y42.050 F3000.0
G1 X-33.013 Y41.481 F3000.0
G1 X-33.055 Y40.875 F3000.0
G1 X-33.055 Y40.875 F3000.0
G1 X-33.013 Y40.286 F3000.0
G1 X-32.888 Y39.732 F3000.0
G1 X-32.678 Y39.214 F3000.0
G1 X-32.385 Y38.730 F3000.0
G1 X-32.008 Y38.281 F3000.0
G1 X-32.008 Y38.281 F3000.0
G1 X-31.566 Y37.893 F3000.0
G1 X-31.091 Y37.591 F3000.0
G1 X-30.581 Y37.376 F3000.0
G1 X-30.038 Y37.246 F3000.0
G1 X-29.461 Y37.203 F3000.0
G1 X-29.461 Y37.203 F3000.0
G1 X-28.875 Y37.246 F3000.0
G1 X-28.326 Y37.376 F3000.0
G1 X-27.817 Y37.591 F3000.0
G1 X-27.346 Y37.893 F3000.0
G1 X-26.915 Y38.281 F3000.0
G1 X-26.915 Y38.281 F3000.0
G1 X-26.538 Y38.730 F3000.0
G1 X-26.245 Y39.214 F3000.0
G1 X-26.035 Y39.732 F3000.0
G1 X-25.910 Y40.286 F3000.0
G1 X-25.868 Y40.875 F3000.0
G1 X-25.868 Y40.875 F3000.0
G1 X-25.910 Y41.481 F3000.0
G1 X-26.035 Y42.050 F3000.0
G1 X-26.245 Y42.581 F3000.0
G1 X-26.538 Y43.075 F3000.0
G1 X-26.915 Y43.531 F3000.0
G1 X-26.915 Y43.531 F3000.0
G1 X-27.346 Y43.931 F3000.0
G1 X-27.817 Y44.241 F3000.0
G1 X-28.326 Y44.463 F3000.0
G1 X-28.875 Y44.596 F3000.0
G1 X-29.461 Y44.641 F3000.0
G1 X-29.461 Y44.688 F3000.0
G1 X-29.461 Y44.688 F3000.0
M280 P0 S90.0 T150.0
G0 X-29.461 Y57.922 F3000.0
M280 P0 S25.0 T250.0
G1 X-29.461 Y57.922 F3000.0
G1 X-29.990 Y57.865 F3000.0
G1 X-30.489 Y57.732 F3000.0
G1 X-30.958 Y57.522 F3000.0
G1 X-31.396 Y57.237 F3000.0
G1 X-31.805 Y56.875 F3000.0
G1 X-31.805 Y56.875 F3000.0
G1 X-32.154 Y56.459 F3000.0
G1 X-32.425 Y56.012 F3000.0
G1 X-32.619 Y55.534 F3000.0
G1 X-32.735 Y55.025 F3000.0
