;Generated with Makelangelo 7.76.1
; 2025-11-12 at 19:37:05 ART
;FLAVOR:Marlin-polargraph
;MINX:-181.641
;MINY:-192.000
;MAXX:181.641
;MAXY:172.000
;Start of user gcode
G0 Y0
;End of user gcode
G28 X Y
M201 X100.0 Y100.0
M203 X3000.0 Y3000.0
M204 S100.0
M205 X10 Y10
M280 P0 S90.0 T150.0
M0 Ready black and click
G0 X22.000 Y-10.000 F3000.0
M280 P0 S25.0 T250.0
G1 X22.000 Y-10.000 F3000.0
G1 X23.024 Y-22.442 F3000.0
G1 X26.070 Y-34.558 F3000.0
G1 X31.060 Y-46.028 F3000.0
G1 X37.867 Y-56.551 F3000.0
G1 X46.314 Y-65.848 F3000.0
G1 X56.187 Y-73.674 F3000.0
G1 X67.232 Y-79.819 F3000.0
G1 X79.166 Y-84.118 F3000.0
G1 X91.683 Y-86.454 F3000.0
G1 X104.463 Y-86.757 F3000.0
G1 X117.176 Y-85.011 F3000.0
G1 X129.499 Y-81.254 F3000.0
G1 X141.114 Y-75.574 F3000.0
G1 X151.724 Y-68.107 F3000.0
G1 X161.057 Y-59.036 F3000.0
G1 X168.873 Y-48.587 F3000.0
G1 X174.972 Y-37.017 F3000.0
G1 X179.197 Y-24.617 F3000.0
G1 X181.439 Y-11.694 F3000.0
G1 X181.641 Y1.428 F3000.0
G1 X179.796 Y14.421 F3000.0
G1 X175.952 Y26.961 F3000.0
G1 X170.206 Y38.734 F3000.0
G1 X162.706 Y49.448 F3000.0
G1 X153.641 Y58.835 F3000.0
G1 X143.245 Y66.664 F3000.0
G1 X131.783 Y72.743 F3000.0
G1 X119.547 Y76.923 F3000.0
G1 X106.851 Y79.106 F3000.0
G1 X94.019 Y79.244 F3000.0
G1 X81.378 Y77.342 F3000.0
G1 X69.252 Y73.456 F3000.0
G1 X57.952 Y67.695 F3000.0
G1 X47.764 Y60.214 F3000.0
G1 X38.950 Y51.212 F3000.0
G1 X31.734 Y40.930 F3000.0
G1 X26.300 Y29.637 F3000.0
G1 X22.787 Y17.632 F3000.0
G1 X21.283 Y5.230 F3000.0
G1 X21.827 Y-7.243 F3000.0
G1 X24.402 Y-19.459 F3000.0
G1 X28.943 Y-31.097 F3000.0
G1 X35.331 Y-41.851 F3000.0
G1 X43.402 Y-51.438 F3000.0
G1 X52.949 Y-59.603 F3000.0
G1 X63.725 Y-66.129 F3000.0
G1 X75.453 Y-70.842 F3000.0
G1 X87.831 Y-73.612 F3000.0
G1 X100.543 Y-74.360 F3000.0
G1 X113.259 Y-73.059 F3000.0
G1 X125.654 Y-69.734 F3000.0
G1 X137.408 Y-64.462 F3000.0
G1 X148.220 Y-57.370 F3000.0
G1 X157.811 Y-48.632 F3000.0
G1 X165.933 Y-38.464 F3000.0
G1 X172.378 Y-27.117 F3000.0
G1 X176.979 Y-14.875 F3000.0
G1 X179.616 Y-2.042 F3000.0
G1 X180.221 Y11.060 F3000.0
G1 X178.776 Y24.103 F3000.0
G1 X175.318 Y36.763 F3000.0
G1 X169.932 Y48.722 F3000.0
G1 X162.756 Y59.682 F3000.0
G1 X153.972 Y69.371 F3000.0
G1 X143.803 Y77.549 F3000.0
G1 X132.507 Y84.013 F3000.0
G1 X120.373 Y88.607 F3000.0
G1 X107.710 Y91.221 F3000.0
G1 X94.841 Y91.795 F3000.0
G1 X82.092 Y90.324 F3000.0
G1 X69.790 Y86.852 F3000.0
G1 X58.247 Y81.478 F3000.0
G1 X47.757 Y74.346 F3000.0
G1 X38.587 Y65.646 F3000.0
G1 X30.971 Y55.611 F3000.0
G1 X25.100 Y44.505 F3000.0
G1 X21.125 Y32.621 F3000.0
G1 X19.144 Y20.270 F3000.0
G1 X19.206 Y7.777 F3000.0
G1 X21.309 Y-4.529 F3000.0
G1 X25.395 Y-16.326 F3000.0
G1 X31.359 Y-27.303 F3000.0
G1 X39.044 Y-37.172 F3000.0
G1 X48.254 Y-45.671 F3000.0
G1 X58.748 Y-52.575 F3000.0
G1 X70.257 Y-57.700 F3000.0
G1 X82.483 Y-60.906 F3000.0
G1 X95.112 Y-62.102 F3000.0
G1 X107.816 Y-61.251 F3000.0
G1 X120.269 Y-58.366 F3000.0
G1 X132.150 Y-53.514 F3000.0
G1 X143.151 Y-46.811 F3000.0
G1 X152.988 Y-38.420 F3000.0
G1 X161.408 Y-28.549 F3000.0
G1 X168.192 Y-17.442 F3000.0
G1 X173.164 Y-5.377 F3000.0
G1 X176.194 Y7.345 F3000.0
G1 X177.202 Y20.407 F3000.0
G1 X176.160 Y33.481 F3000.0
G1 X173.092 Y46.241 F3000.0
G1 X168.074 Y58.367 F3000.0
G1 X161.232 Y69.557 F3000.0
G1 X152.739 Y79.532 F3000.0
G1 X142.810 Y88.043 F3000.0
G1 X131.696 Y94.882 F3000.0
G1 X119.679 Y99.880 F3000.0
G1 X107.065 Y102.916 F3000.0
G1 X94.175 Y103.922 F3000.0
G1 X81.334 Y102.879 F3000.0
G1 X68.871 Y99.822 F3000.0
G1 X57.100 Y94.836 F3000.0
G1 X46.322 Y88.057 F3000.0
G1 X36.809 Y79.666 F3000.0
G1 X28.802 Y69.886 F3000.0
G1 X22.503 Y58.976 F3000.0
G1 X18.071 Y47.221 F3000.0
G1 X15.616 Y34.932 F3000.0
G1 X15.199 Y22.431 F3000.0
G1 X16.827 Y10.045 F3000.0
G1 X20.455 Y-1.901 F3000.0
G1 X25.988 Y-13.093 F3000.0
G1 X33.280 Y-23.236 F3000.0
G1 X42.142 Y-32.064 F3000.0
G1 X52.344 Y-39.342 F3000.0
G1 X63.621 Y-44.877 F3000.0
G1 X75.681 Y-48.518 F3000.0
G1 X88.213 Y-50.166 F3000.0
G1 X100.892 Y-49.771 F3000.0
G1 X113.389 Y-47.334 F3000.0
G1 X125.383 Y-42.911 F3000.0
G1 X136.561 Y-36.608 F3000.0
G1 X146.636 Y-28.579 F3000.0
G1 X155.344 Y-19.021 F3000.0
G1 X162.460 Y-8.173 F3000.0
G1 X167.799 Y3.696 F3000.0
G1 X171.219 Y16.290 F3000.0
G1 X172.631 Y29.291 F3000.0
G1 X171.994 Y42.376 F3000.0
G1 X169.322 Y55.217 F3000.0
G1 X164.679 Y67.492 F3000.0
G1 X158.180 Y78.893 F3000.0
G1 X149.990 Y89.138 F3000.0
G1 X140.314 Y97.969 F3000.0
G1 X129.396 Y105.169 F3000.0
G1 X117.512 Y110.561 F3000.0
G1 X104.964 Y114.013 F3000.0
G1 X92.069 Y115.445 F3000.0
G1 X79.154 Y114.827 F3000.0
G1 X66.546 Y112.183 F3000.0
G1 X54.563 Y107.588 F3000.0
G1 X43.511 Y101.166 F3000.0
G1 X33.667 Y93.089 F3000.0
G1 X25.281 Y83.572 F3000.0
G1 X18.562 Y72.866 F3000.0
G1 X13.681 Y61.252 F3000.0
G1 X10.757 Y49.035 F3000.0
G1 X9.862 Y36.535 F3000.0
G1 X11.015 Y24.080 F3000.0
G1 X14.182 Y11.995 F3000.0
G1 X19.279 Y0.598 F3000.0
G1 X26.170 Y-9.812 F3000.0
G1 X34.677 Y-18.961 F3000.0
G1 X44.575 Y-26.608 F3000.0
G1 X55.609 Y-32.550 F3000.0
G1 X67.490 Y-36.628 F3000.0
G1 X79.912 Y-38.729 F3000.0
G1 X92.552 Y-38.793 F3000.0
G1 X105.081 Y-36.812 F3000.0
G1 X117.174 Y-32.828 F3000.0
G1 X128.519 Y-26.937 F3000.0
G1 X138.820 Y-19.283 F3000.0
G1 X147.808 Y-10.054 F3000.0
G1 X155.250 Y0.520 F3000.0
G1 X160.950 Y12.175 F3000.0
G1 X164.759 Y24.619 F3000.0
G1 X166.574 Y37.542 F3000.0
G1 X166.345 Y50.618 F3000.0
G1 X164.073 Y63.520 F3000.0
G1 X159.813 Y75.925 F3000.0
G1 X153.668 Y87.520 F3000.0
G1 X145.792 Y98.018 F3000.0
G1 X136.382 Y107.155 F3000.0
G1 X125.675 Y114.704 F3000.0
G1 X113.941 Y120.479 F3000.0
G1 X101.475 Y124.338 F3000.0
G1 X88.594 Y126.191 F3000.0
G1 X75.621 Y125.995 F3000.0
G1 X62.885 Y123.763 F3000.0
G1 X50.707 Y119.560 F3000.0
G1 X39.396 Y113.499 F3000.0
G1 X29.235 Y105.742 F3000.0
G1 X20.481 Y96.496 F3000.0
G1 X13.354 Y86.003 F3000.0
G1 X8.030 Y74.539 F3000.0
G1 X4.643 Y62.405 F3000.0
G1 X3.273 Y49.918 F3000.0
G1 X3.952 Y37.404 F3000.0
G1 X6.656 Y25.192 F3000.0
G1 X11.313 Y13.599 F3000.0
G1 X17.798 Y2.931 F3000.0
G1 X25.940 Y-6.533 F3000.0
G1 X35.526 Y-14.544 F3000.0
G1 X46.305 Y-20.890 F3000.0
G1 X57.996 Y-25.403 F3000.0
G1 X70.296 Y-27.959 F3000.0
G1 X82.883 Y-28.487 F3000.0
G1 X95.431 Y-26.967 F3000.0
G1 X107.613 Y-23.430 F3000.0
G1 X119.112 Y-17.962 F3000.0
G1 X129.628 Y-10.696 F3000.0
G1 X138.888 Y-1.811 F3000.0
G1 X146.649 Y8.472 F3000.0
G1 X152.707 Y19.895 F3000.0
G1 X156.902 Y32.172 F3000.0
G1 X159.121 Y44.996 F3000.0
G1 X159.302 Y58.044 F3000.0
G1 X157.436 Y70.989 F3000.0
G1 X153.565 Y83.504 F3000.0
G1 X147.783 Y95.277 F3000.0
G1 X140.233 Y106.011 F3000.0
G1 X131.104 Y115.439 F3000.0
G1 X120.623 Y123.324 F3000.0
G1 X109.055 Y129.472 F3000.0
G1 X96.689 Y133.730 F3000.0
G1 X83.838 Y135.997 F3000.0
G1 X70.826 Y136.220 F3000.0
G1 X57.980 Y134.400 F3000.0
G1 X45.624 Y130.590 F3000.0
G1 X34.069 Y124.894 F3000.0
G1 X23.606 Y117.463 F3000.0
G1 X14.498 Y108.494 F3000.0
G1 X6.972 Y98.223 F3000.0
G1 X1.216 Y86.919 F3000.0
G1 X-2.629 Y74.879 F3000.0
G1 X-4.469 Y62.416 F3000.0
G1 X-4.263 Y49.855 F3000.0
G1 X-2.021 Y37.526 F3000.0
G1 X2.193 Y25.748 F3000.0
G1 X8.266 Y14.831 F3000.0
G1 X16.037 Y5.060 F3000.0
G1 X25.301 Y-3.309 F3000.0
G1 X35.816 Y-10.056 F3000.0
G1 X47.305 Y-15.001 F3000.0
G1 X59.470 Y-18.013 F3000.0
G1 X71.992 Y-19.007 F3000.0
G1 X84.546 Y-17.953 F3000.0
G1 X96.805 Y-14.872 F3000.0
G1 X108.447 Y-9.837 F3000.0
G1 X119.170 Y-2.971 F3000.0
G1 X128.693 Y5.556 F3000.0
G1 X136.767 Y15.532 F3000.0
G1 X143.178 Y26.706 F3000.0
G1 X147.756 Y38.798 F3000.0
G1 X150.379 Y51.505 F3000.0
G1 X150.973 Y64.506 F3000.0
G1 X149.518 Y77.473 F3000.0
G1 X146.044 Y90.082 F3000.0
G1 X140.635 Y102.014 F3000.0
G1 X133.423 Y112.969 F3000.0
G1 X124.588 Y122.672 F3000.0
G1 X114.348 Y130.881 F3000.0
G1 X102.962 Y137.391 F3000.0
G1 X90.714 Y142.040 F3000.0
G1 X77.912 Y144.715 F3000.0
G1 X64.879 Y145.354 F3000.0
G1 X51.941 Y143.944 F3000.0
G1 X39.424 Y140.529 F3000.0
G1 X27.643 Y135.200 F3000.0
G1 X16.894 Y128.100 F3000.0
G1 X7.445 Y119.416 F3000.0
G1 X-0.467 Y109.377 F3000.0
G1 X-6.647 Y98.243 F3000.0
G1 X-10.941 Y86.308 F3000.0
G1 X-13.246 Y73.880 F3000.0
G1 X-13.510 Y61.285 F3000.0
G1 X-11.731 Y48.849 F3000.0
G1 X-7.962 Y36.898 F3000.0
G1 X-2.304 Y25.741 F3000.0
G1 X5.089 Y15.672 F3000.0
G1 X14.023 Y6.951 F3000.0
G1 X24.263 Y-0.191 F3000.0
G1 X35.540 Y-5.566 F3000.0
G1 X47.559 Y-9.033 F3000.0
G1 X60.005 Y-10.496 F3000.0
G1 X72.554 Y-9.913 F3000.0
G1 X84.876 Y-7.294 F3000.0
G1 X96.652 Y-2.701 F3000.0
G1 X107.572 Y3.754 F3000.0
G1 X117.350 Y11.910 F3000.0
G1 X125.729 Y21.563 F3000.0
G1 X132.488 Y32.472 F3000.0
G1 X137.448 Y44.361 F3000.0
G1 X140.475 Y56.932 F3000.0
G1 X141.485 Y69.867 F3000.0
G1 X140.445 Y82.840 F3000.0
G1 X137.375 Y95.523 F3000.0
G1 X132.349 Y107.597 F3000.0
G1 X125.487 Y118.757 F3000.0
G1 X116.959 Y128.721 F3000.0
G1 X106.977 Y137.241 F3000.0
G1 X95.790 Y144.102 F3000.0
G1 X83.677 Y149.133 F3000.0
G1 X70.943 Y152.211 F3000.0
G1 X57.907 Y153.260 F3000.0
G1 X44.896 Y152.260 F3000.0
G1 X32.237 Y149.240 F3000.0
G1 X20.247 Y144.283 F3000.0
G1 X9.227 Y137.520 F3000.0
G1 X-0.548 Y129.128 F3000.0
G1 X-8.834 Y119.329 F3000.0
G1 X-15.426 Y108.377 F3000.0
G1 X-20.161 Y96.557 F3000.0
G1 X-22.925 Y84.177 F3000.0
G1 X-23.655 Y71.559 F3000.0
G1 X-22.338 Y59.029 F3000.0
G1 X-19.014 Y46.915 F3000.0
G1 X-13.776 Y35.530 F3000.0
G1 X-6.766 Y25.171 F3000.0
G1 X1.831 Y16.107 F3000.0
G1 X11.788 Y8.575 F3000.0
G1 X22.842 Y2.773 F3000.0
G1 X34.704 Y-1.147 F3000.0
G1 X47.062 Y-3.080 F3000.0
G1 X59.594 Y-2.971 F3000.0
G1 X71.971 Y-0.820 F3000.0
G1 X83.868 Y3.322 F3000.0
G1 X94.975 Y9.355 F3000.0
G1 X105.000 Y17.128 F3000.0
G1 X113.678 Y26.445 F3000.0
G1 X120.781 Y37.072 F3000.0
G1 X126.120 Y48.742 F3000.0
G1 X129.551 Y61.160 F3000.0
G1 X130.978 Y74.010 F3000.0
G1 X130.359 Y86.970 F3000.0
G1 X127.701 Y99.710 F3000.0
G1 X123.067 Y111.909 F3000.0
G1 X116.566 Y123.257 F3000.0
G1 X108.360 Y133.469 F3000.0
G1 X98.650 Y142.287 F3000.0
G1 X87.679 Y149.488 F3000.0
G1 X75.720 Y154.892 F3000.0
G1 X63.073 Y158.366 F3000.0
G1 X50.053 Y159.823 F3000.0
G1 X36.988 Y159.231 F3000.0
G1 X24.206 Y156.608 F3000.0
G1 X12.025 Y152.025 F3000.0
G1 X0.751 Y145.604 F3000.0
G1 X-9.335 Y137.513 F3000.0
G1 X-17.981 Y127.963 F3000.0
G1 X-24.973 Y117.202 F3000.0
G1 X-30.141 Y105.510 F3000.0
G1 X-33.357 Y93.190 F3000.0
G1 X-34.548 Y80.561 F3000.0
G1 X-33.690 Y67.951 F3000.0
G1 X-30.813 Y55.686 F3000.0
G1 X-25.997 Y44.083 F3000.0
G1 X-19.374 Y33.444 F3000.0
G1 X-11.121 Y24.045 F3000.0
G1 X-1.455 Y16.130 F3000.0
G1 X9.367 Y9.906 F3000.0
G1 X21.062 Y5.535 F3000.0
G1 X33.321 Y3.133 F3000.0
G1 X45.824 Y2.764 F3000.0
G1 X58.243 Y4.442 F3000.0
G1 X70.252 Y8.128 F3000.0
G1 X81.537 Y13.729 F3000.0
G1 X91.800 Y21.106 F3000.0
G1 X100.772 Y30.074 F3000.0
G1 X108.214 Y40.405 F3000.0
G1 X113.929 Y51.839 F3000.0
G1 X117.764 Y64.086 F3000.0
G1 X119.611 Y76.835 F3000.0
G1 X119.416 Y89.764 F3000.0
G1 X117.177 Y102.544 F3000.0
G1 X112.944 Y114.850 F3000.0
G1 X106.817 Y126.372 F3000.0
G1 X98.946 Y136.816 F3000.0
G1 X89.524 Y145.919 F3000.0
G1 X78.786 Y153.450 F3000.0
G1 X66.999 Y159.219 F3000.0
G1 X54.456 Y163.083 F3000.0
G1 X41.474 Y164.943 F3000.0
G1 X28.374 Y164.757 F3000.0
G1 X15.487 Y162.532 F3000.0
G1 X3.133 Y158.328 F3000.0
G1 X-8.377 Y152.254 F3000.0
G1 X-18.757 Y144.471 F3000.0
G1 X-27.750 Y135.179 F3000.0
G1 X-35.130 Y124.621 F3000.0
G1 X-40.719 Y113.069 F3000.0
G1 X-44.380 Y100.822 F3000.0
G1 X-46.027 Y88.195 F3000.0
G1 X-45.626 Y75.517 F3000.0
G1 X-43.194 Y63.114 F3000.0
G1 X-38.803 Y51.305 F3000.0
G1 X-32.571 Y40.398 F3000.0
G1 X-24.667 Y30.673 F3000.0
G1 X-15.300 Y22.383 F3000.0
G1 X-4.719 Y15.742 F3000.0
G1 X6.799 Y10.923 F3000.0
G1 X18.948 Y8.052 F3000.0
G1 X31.412 Y7.205 F3000.0
G1 X43.863 Y8.407 F3000.0
G1 X55.974 Y11.628 F3000.0
G1 X67.427 Y16.790 F3000.0
G1 X77.920 Y23.761 F3000.0
G1 X87.178 Y32.367 F3000.0
G1 X94.954 Y42.388 F3000.0
G1 X101.043 Y53.570 F3000.0
G1 X105.281 Y65.631 F3000.0
G1 X107.550 Y78.262 F3000.0
G1 X107.784 Y91.142 F3000.0
G1 X105.971 Y103.944 F3000.0
G1 X102.148 Y116.343 F3000.0
G1 X96.405 Y128.022 F3000.0
G1 X88.883 Y138.684 F3000.0
G1 X79.764 Y148.060 F3000.0
G1 X69.276 Y155.910 F3000.0
G1 X57.679 Y162.036 F3000.0
G1 X45.262 Y166.282 F3000.0
G1 X32.334 Y168.543 F3000.0
G1 X19.220 Y168.762 F3000.0
G1 X6.248 Y166.936 F3000.0
G1 X-6.259 Y163.113 F3000.0
G1 X-17.988 Y157.393 F3000.0
G1 X-28.647 Y149.925 F3000.0
G1 X-37.970 Y140.902 F3000.0
G1 X-45.726 Y130.557 F3000.0
G1 X-51.726 Y119.157 F3000.0
G1 X-55.823 Y106.995 F3000.0
G1 X-57.920 Y94.385 F3000.0
G1 X-57.971 Y81.652 F3000.0
G1 X-55.984 Y69.124 F3000.0
G1 X-52.017 Y57.123 F3000.0
G1 X-46.180 Y45.959 F3000.0
G1 X-38.631 Y35.919 F3000.0
G1 X-29.570 Y27.261 F3000.0
G1 X-19.238 Y20.210 F3000.0
G1 X-7.908 Y14.948 F3000.0
G1 X4.122 Y11.610 F3000.0
G1 X16.536 Y10.285 F3000.0
G1 X29.008 Y11.007 F3000.0
G1 X41.210 Y13.759 F3000.0
G1 X52.822 Y18.473 F3000.0
G1 X63.537 Y25.029 F3000.0
G1 X73.074 Y33.261 F3000.0
G1 X81.180 Y42.958 F3000.0
G1 X87.640 Y53.876 F3000.0
G1 X92.279 Y65.734 F3000.0
G1 X94.971 Y78.229 F3000.0
G1 X95.639 Y91.045 F3000.0
G1 X94.258 Y103.853 F3000.0
G1 X90.854 Y116.327 F3000.0
G1 X85.507 Y128.149 F3000.0
G1 X78.347 Y139.016 F3000.0
G1 X69.547 Y148.652 F3000.0
G1 X59.326 Y156.810 F3000.0
G1 X47.936 Y163.284 F3000.0
G1 X35.663 Y167.908 F3000.0
G1 X22.811 Y170.565 F3000.0
G1 X9.702 Y171.188 F3000.0
G1 X-3.336 Y169.761 F3000.0
G1 X-15.978 Y166.323 F3000.0
G1 X-27.907 Y160.963 F3000.0
G1 X-38.827 Y153.818 F3000.0
G1 X-48.465 Y145.073 F3000.0
G1 X-56.584 Y134.953 F3000.0
G1 X-62.982 Y123.717 F3000.0
G1 X-67.506 Y111.655 F3000.0
G1 X-70.046 Y99.076 F3000.0
G1 X-70.546 Y86.303 F3000.0
G1 X-69.001 Y73.664 F3000.0
G1 X-65.460 Y61.483 F3000.0
G1 X-60.020 Y50.075 F3000.0
G1 X-52.830 Y39.730 F3000.0
G1 X-44.081 Y30.715 F3000.0
G1 X-34.007 Y23.261 F3000.0
G1 X-22.872 Y17.561 F3000.0
G1 X-10.972 Y13.760 F3000.0
G1 X1.381 Y11.957 F3000.0
G1 X13.863 Y12.197 F3000.0
G1 X26.147 Y14.477 F3000.0
G1 X37.907 Y18.737 F3000.0
G1 X48.836 Y24.869 F3000.0
G1 X58.646 Y32.716 F3000.0
G1 X67.076 Y42.078 F3000.0
G1 X73.903 Y52.716 F3000.0
G1 X78.943 Y64.356 F3000.0
G1 X82.060 Y76.702 F3000.0
G1 X83.164 Y89.437 F3000.0
G1 X82.221 Y102.235 F3000.0
G1 X79.245 Y114.769 F3000.0
G1 X74.305 Y126.719 F3000.0
G1 X67.519 Y137.776 F3000.0
G1 X59.052 Y147.661 F3000.0
G1 X49.114 Y156.117 F3000.0
G1 X37.951 Y162.931 F3000.0
G1 X25.840 Y167.926 F3000.0
G1 X13.083 Y170.975 F3000.0
G1 X-0.000 Y172.000 F3000.0
G1 X-13.083 Y170.975 F3000.0
G1 X-25.840 Y167.926 F3000.0
G1 X-37.951 Y162.931 F3000.0
G1 X-49.114 Y156.117 F3000.0
G1 X-59.052 Y147.660 F3000.0
G1 X-67.519 Y137.777 F3000.0
G1 X-74.305 Y126.718 F3000.0
G1 X-79.245 Y114.769 F3000.0
G1 X-82.221 Y102.235 F3000.0
G1 X-83.164 Y89.437 F3000.0
G1 X-82.060 Y76.702 F3000.0
G1 X-78.943 Y64.356 F3000.0
G1 X-73.903 Y52.716 F3000.0
G1 X-67.076 Y42.078 F3000.0
G1 X-58.646 Y32.716 F3000.0
G1 X-48.836 Y24.869 F3000.0
G1 X-37.907 Y18.737 F3000.0
G1 X-26.147 Y14.477 F3000.0
G1 X-13.864 Y12.197 F3000.0
G1 X-1.382 Y11.957 F3000.0
G1 X10.972 Y13.760 F3000.0
G1 X22.873 Y17.561 F3000.0
G1 X34.007 Y23.261 F3000.0
G1 X44.081 Y30.715 F3000.0
G1 X52.830 Y39.730 F3000.0
G1 X60.020 Y50.075 F3000.0
G1 X65.460 Y61.484 F3000.0
G1 X69.001 Y73.664 F3000.0
G1 X70.546 Y86.303 F3000.0
G1 X70.046 Y99.076 F3000.0
G1 X67.506 Y111.655 F3000.0
G1 X62.983 Y123.717 F3000.0
G1 X56.584 Y134.953 F3000.0
G1 X48.465 Y145.074 F3000.0
G1 X38.827 Y153.818 F3000.0
G1 X27.907 Y160.963 F3000.0
G1 X15.978 Y166.323 F3000.0
G1 X3.336 Y169.761 F3000.0
G1 X-9.702 Y171.188 F3000.0
G1 X-22.811 Y170.565 F3000.0
G1 X-35.662 Y167.908 F3000.0
G1 X-47.936 Y163.284 F3000.0
G1 X-59.325 Y156.810 F3000.0
G1 X-69.547 Y148.652 F3000.0
G1 X-78.347 Y139.016 F3000.0
G1 X-85.508 Y128.149 F3000.0
G1 X-90.854 Y116.328 F3000.0
G1 X-94.258 Y103.853 F3000.0
G1 X-95.639 Y91.045 F3000.0
G1 X-94.971 Y78.230 F3000.0
G1 X-92.279 Y65.733 F3000.0
G1 X-87.640 Y53.876 F3000.0
G1 X-81.180 Y42.959 F3000.0
G1 X-73.074 Y33.261 F3000.0
G1 X-63.537 Y25.029 F3000.0
G1 X-52.821 Y18.473 F3000.0
G1 X-41.210 Y13.759 F3000.0
G1 X-29.008 Y11.007 F3000.0
G1 X-16.537 Y10.285 F3000.0
G1 X-4.122 Y11.610 F3000.0
