;Generated with Makelangelo 7.76.1
; 2025-11-12 at 19:17:51 ART
;FLAVOR:Marlin-polargraph
;MINX:-256.344
;MINY:-72.319
;MAXX:252.976
;MAXY:45.604
;Start of user gcode
G0 Y0
;End of user gcode
G28 X Y
M201 X100.0 Y100.0
M203 X3000.0 Y3000.0
M204 S100.0
M205 X10 Y10
M280 P0 S90.0 T150.0
M0 Ready black and click
G0 X-70.305 Y-71.705 F3000.0
M280 P0 S25.0 T250.0
G1 X-70.305 Y-71.295 F3000.0
G1 X-70.660 Y-71.091 F3000.0
G1 X-71.014 Y-71.295 F3000.0
G1 X-71.014 Y-71.705 F3000.0
G1 X-70.660 Y-71.909 F3000.0
G1 X-70.305 Y-71.705 F3000.0
M280 P0 S90.0 T150.0
G0 X-70.625 Y-71.111 F3000.0
M280 P0 S25.0 T250.0
G1 X-70.625 Y-71.889 F3000.0
M280 P0 S90.0 T150.0
G0 X-70.625 Y-71.111 F3000.0
M280 P0 S25.0 T250.0
G1 X-70.625 Y-71.889 F3000.0
M280 P0 S90.0 T150.0
G0 X-66.384 Y-71.836 F3000.0
M280 P0 S25.0 T250.0
G1 X-66.384 Y-71.164 F3000.0
G1 X-66.967 Y-70.827 F3000.0
G1 X-67.550 Y-71.164 F3000.0
G1 X-67.550 Y-71.836 F3000.0
G1 X-66.967 Y-72.173 F3000.0
G1 X-66.384 Y-71.836 F3000.0
M280 P0 S90.0 T150.0
G0 X-66.394 Y-71.158 F3000.0
M280 P0 S25.0 T250.0
G1 X-66.394 Y-71.842 F3000.0
M280 P0 S90.0 T150.0
G0 X-66.394 Y-71.158 F3000.0
M280 P0 S25.0 T250.0
G1 X-66.394 Y-71.842 F3000.0
M280 P0 S90.0 T150.0
G0 X-67.194 Y-70.958 F3000.0
M280 P0 S25.0 T250.0
G1 X-67.194 Y-72.042 F3000.0
M280 P0 S90.0 T150.0
G0 X-62.920 Y-71.836 F3000.0
M280 P0 S25.0 T250.0
G1 X-62.920 Y-71.164 F3000.0
G1 X-63.503 Y-70.827 F3000.0
G1 X-64.086 Y-71.164 F3000.0
G1 X-64.086 Y-71.836 F3000.0
G1 X-63.503 Y-72.173 F3000.0
G1 X-62.920 Y-71.836 F3000.0
M280 P0 S90.0 T150.0
G0 X-62.930 Y-71.158 F3000.0
M280 P0 S25.0 T250.0
G1 X-62.930 Y-71.842 F3000.0
M280 P0 S90.0 T150.0
G0 X-62.930 Y-71.158 F3000.0
M280 P0 S25.0 T250.0
G1 X-62.930 Y-71.842 F3000.0
M280 P0 S90.0 T150.0
G0 X-63.730 Y-70.958 F3000.0
M280 P0 S25.0 T250.0
G1 X-63.730 Y-72.042 F3000.0
M280 P0 S90.0 T150.0
G0 X-59.456 Y-71.836 F3000.0
M280 P0 S25.0 T250.0
G1 X-59.456 Y-71.164 F3000.0
G1 X-60.039 Y-70.827 F3000.0
G1 X-60.622 Y-71.164 F3000.0
G1 X-60.622 Y-71.836 F3000.0
G1 X-60.039 Y-72.173 F3000.0
G1 X-59.456 Y-71.836 F3000.0
M280 P0 S90.0 T150.0
G0 X-59.466 Y-71.158 F3000.0
M280 P0 S25.0 T250.0
G1 X-59.466 Y-71.842 F3000.0
M280 P0 S90.0 T150.0
G0 X-59.466 Y-71.158 F3000.0
M280 P0 S25.0 T250.0
G1 X-59.466 Y-71.842 F3000.0
M280 P0 S90.0 T150.0
G0 X-60.266 Y-70.958 F3000.0
M280 P0 S25.0 T250.0
G1 X-60.266 Y-72.042 F3000.0
M280 P0 S90.0 T150.0
G0 X-56.341 Y-71.736 F3000.0
M280 P0 S25.0 T250.0
G1 X-56.341 Y-71.264 F3000.0
G1 X-56.749 Y-71.028 F3000.0
G1 X-57.158 Y-71.264 F3000.0
G1 X-57.158 Y-71.736 F3000.0
G1 X-56.749 Y-71.972 F3000.0
G1 X-56.341 Y-71.736 F3000.0
M280 P0 S90.0 T150.0
G0 X-56.587 Y-71.122 F3000.0
M280 P0 S25.0 T250.0
G1 X-56.587 Y-71.878 F3000.0
M280 P0 S90.0 T150.0
G0 X-56.587 Y-71.122 F3000.0
M280 P0 S25.0 T250.0
G1 X-56.587 Y-71.878 F3000.0
M280 P0 S90.0 T150.0
G0 X-53.646 Y-71.514 F3000.0
M280 P0 S25.0 T250.0
G1 X-53.646 Y-71.486 F3000.0
G1 X-53.670 Y-71.472 F3000.0
G1 X-53.694 Y-71.486 F3000.0
G1 X-53.694 Y-71.514 F3000.0
G1 X-53.670 Y-71.528 F3000.0
G1 X-53.646 Y-71.514 F3000.0
M280 P0 S90.0 T150.0
G0 X-46.165 Y-71.673 F3000.0
M280 P0 S25.0 T250.0
G1 X-46.165 Y-71.327 F3000.0
G1 X-46.465 Y-71.153 F3000.0
G1 X-46.765 Y-71.327 F3000.0
G1 X-46.765 Y-71.673 F3000.0
G1 X-46.465 Y-71.847 F3000.0
G1 X-46.165 Y-71.673 F3000.0
M280 P0 S90.0 T150.0
G0 X-46.557 Y-71.206 F3000.0
M280 P0 S25.0 T250.0
G1 X-46.557 Y-71.794 F3000.0
M280 P0 S90.0 T150.0
G0 X-46.557 Y-71.206 F3000.0
M280 P0 S25.0 T250.0
G1 X-46.557 Y-71.794 F3000.0
M280 P0 S90.0 T150.0
G0 X-42.076 Y-71.854 F3000.0
M280 P0 S25.0 T250.0
G1 X-42.076 Y-71.146 F3000.0
G1 X-42.688 Y-70.792 F3000.0
G1 X-43.301 Y-71.146 F3000.0
G1 X-43.301 Y-71.854 F3000.0
G1 X-42.688 Y-72.208 F3000.0
G1 X-42.076 Y-71.854 F3000.0
M280 P0 S90.0 T150.0
G0 X-42.845 Y-70.883 F3000.0
M280 P0 S25.0 T250.0
G1 X-42.845 Y-72.117 F3000.0
M280 P0 S90.0 T150.0
G0 X-42.845 Y-70.883 F3000.0
M280 P0 S25.0 T250.0
G1 X-42.845 Y-72.117 F3000.0
M280 P0 S90.0 T150.0
G0 X-38.467 Y-71.895 F3000.0
M280 P0 S25.0 T250.0
G1 X-38.467 Y-71.105 F3000.0
G1 X-39.152 Y-70.709 F3000.0
G1 X-39.837 Y-71.105 F3000.0
G1 X-39.837 Y-71.895 F3000.0
G1 X-39.152 Y-72.291 F3000.0
G1 X-38.467 Y-71.895 F3000.0
M280 P0 S90.0 T150.0
G0 X-39.139 Y-70.717 F3000.0
M280 P0 S25.0 T250.0
G1 X-39.139 Y-72.283 F3000.0
M280 P0 S90.0 T150.0
G0 X-39.139 Y-70.717 F3000.0
M280 P0 S25.0 T250.0
G1 X-39.139 Y-72.283 F3000.0
M280 P0 S90.0 T150.0
G0 X-35.508 Y-71.750 F3000.0
M280 P0 S25.0 T250.0
G1 X-35.508 Y-71.250 F3000.0
G1 X-35.940 Y-71.001 F3000.0
G1 X-36.373 Y-71.250 F3000.0
G1 X-36.373 Y-71.750 F3000.0
G1 X-35.940 Y-71.999 F3000.0
G1 X-35.508 Y-71.750 F3000.0
M280 P0 S90.0 T150.0
G0 X-35.722 Y-71.127 F3000.0
M280 P0 S25.0 T250.0
G1 X-35.722 Y-71.873 F3000.0
M280 P0 S90.0 T150.0
G0 X-35.722 Y-71.127 F3000.0
M280 P0 S25.0 T250.0
G1 X-35.722 Y-71.873 F3000.0
M280 P0 S90.0 T150.0
G0 X-22.060 Y-71.632 F3000.0
M280 P0 S25.0 T250.0
G1 X-22.060 Y-71.368 F3000.0
G1 X-22.288 Y-71.236 F3000.0
G1 X-22.517 Y-71.368 F3000.0
G1 X-22.517 Y-71.632 F3000.0
G1 X-22.288 Y-71.764 F3000.0
G1 X-22.060 Y-71.632 F3000.0
M280 P0 S90.0 T150.0
G0 X-17.683 Y-71.895 F3000.0
M280 P0 S25.0 T250.0
G1 X-17.683 Y-71.105 F3000.0
G1 X-18.368 Y-70.709 F3000.0
G1 X-19.053 Y-71.105 F3000.0
G1 X-19.053 Y-71.895 F3000.0
G1 X-18.368 Y-72.291 F3000.0
G1 X-17.683 Y-71.895 F3000.0
M280 P0 S90.0 T150.0
G0 X-18.354 Y-70.717 F3000.0
M280 P0 S25.0 T250.0
G1 X-18.354 Y-72.283 F3000.0
M280 P0 S90.0 T150.0
G0 X-18.354 Y-70.717 F3000.0
M280 P0 S25.0 T250.0
G1 X-18.354 Y-72.283 F3000.0
M280 P0 S90.0 T150.0
G0 X-14.243 Y-71.888 F3000.0
M280 P0 S25.0 T250.0
G1 X-14.243 Y-71.112 F3000.0
G1 X-14.916 Y-70.723 F3000.0
G1 X-15.588 Y-71.112 F3000.0
G1 X-15.588 Y-71.888 F3000.0
G1 X-14.916 Y-72.277 F3000.0
G1 X-14.243 Y-71.888 F3000.0
M280 P0 S90.0 T150.0
G0 X-14.930 Y-70.732 F3000.0
M280 P0 S25.0 T250.0
G1 X-14.930 Y-72.268 F3000.0
M280 P0 S90.0 T150.0
G0 X-14.930 Y-70.732 F3000.0
M280 P0 S25.0 T250.0
G1 X-14.930 Y-72.268 F3000.0
M280 P0 S90.0 T150.0
G0 X-11.800 Y-71.594 F3000.0
M280 P0 S25.0 T250.0
G1 X-11.800 Y-71.406 F3000.0
G1 X-11.962 Y-71.313 F3000.0
G1 X-12.124 Y-71.406 F3000.0
G1 X-12.124 Y-71.594 F3000.0
G1 X-11.962 Y-71.687 F3000.0
G1 X-11.800 Y-71.594 F3000.0
M280 P0 S90.0 T150.0
G0 X2.081 Y-71.601 F3000.0
M280 P0 S25.0 T250.0
G1 X2.081 Y-71.399 F3000.0
G1 X1.906 Y-71.299 F3000.0
G1 X1.732 Y-71.399 F3000.0
G1 X1.732 Y-71.601 F3000.0
G1 X1.906 Y-71.701 F3000.0
G1 X2.081 Y-71.601 F3000.0
M280 P0 S90.0 T150.0
G0 X6.542 Y-71.888 F3000.0
M280 P0 S25.0 T250.0
G1 X6.542 Y-71.112 F3000.0
G1 X5.869 Y-70.723 F3000.0
G1 X5.196 Y-71.112 F3000.0
G1 X5.196 Y-71.888 F3000.0
G1 X5.869 Y-72.277 F3000.0
G1 X6.542 Y-71.888 F3000.0
M280 P0 S90.0 T150.0
G0 X5.854 Y-70.732 F3000.0
M280 P0 S25.0 T250.0
G1 X5.854 Y-72.268 F3000.0
M280 P0 S90.0 T150.0
G0 X5.854 Y-70.732 F3000.0
M280 P0 S25.0 T250.0
G1 X5.854 Y-72.268 F3000.0
M280 P0 S90.0 T150.0
G0 X9.934 Y-71.868 F3000.0
M280 P0 S25.0 T250.0
G1 X9.934 Y-71.132 F3000.0
G1 X9.297 Y-70.765 F3000.0
G1 X8.660 Y-71.132 F3000.0
G1 X8.660 Y-71.868 F3000.0
G1 X9.297 Y-72.235 F3000.0
G1 X9.934 Y-71.868 F3000.0
M280 P0 S90.0 T150.0
G0 X9.197 Y-70.822 F3000.0
M280 P0 S25.0 T250.0
G1 X9.197 Y-72.178 F3000.0
M280 P0 S90.0 T150.0
G0 X9.197 Y-70.822 F3000.0
M280 P0 S25.0 T250.0
G1 X9.197 Y-72.178 F3000.0
M280 P0 S90.0 T150.0
G0 X12.761 Y-71.684 F3000.0
M280 P0 S25.0 T250.0
G1 X12.761 Y-71.316 F3000.0
G1 X12.443 Y-71.132 F3000.0
G1 X12.124 Y-71.316 F3000.0
G1 X12.124 Y-71.684 F3000.0
G1 X12.443 Y-71.868 F3000.0
G1 X12.761 Y-71.684 F3000.0
M280 P0 S90.0 T150.0
G0 X12.393 Y-71.161 F3000.0
M280 P0 S25.0 T250.0
G1 X12.393 Y-71.839 F3000.0
M280 P0 S90.0 T150.0
G0 X12.393 Y-71.161 F3000.0
M280 P0 S25.0 T250.0
G1 X12.393 Y-71.839 F3000.0
M280 P0 S90.0 T150.0
G0 X22.841 Y-71.594 F3000.0
M280 P0 S25.0 T250.0
G1 X22.841 Y-71.406 F3000.0
G1 X22.679 Y-71.313 F3000.0
G1 X22.517 Y-71.406 F3000.0
G1 X22.517 Y-71.594 F3000.0
G1 X22.679 Y-71.687 F3000.0
G1 X22.841 Y-71.594 F3000.0
M280 P0 S90.0 T150.0
G0 X27.146 Y-71.836 F3000.0
M280 P0 S25.0 T250.0
G1 X27.146 Y-71.164 F3000.0
G1 X26.564 Y-70.827 F3000.0
G1 X25.981 Y-71.164 F3000.0
G1 X25.981 Y-71.836 F3000.0
G1 X26.564 Y-72.173 F3000.0
G1 X27.146 Y-71.836 F3000.0
M280 P0 S90.0 T150.0
G0 X27.136 Y-71.158 F3000.0
M280 P0 S25.0 T250.0
G1 X27.136 Y-71.842 F3000.0
M280 P0 S90.0 T150.0
G0 X27.136 Y-71.158 F3000.0
M280 P0 S25.0 T250.0
G1 X27.136 Y-71.842 F3000.0
M280 P0 S90.0 T150.0
G0 X26.336 Y-70.958 F3000.0
M280 P0 S25.0 T250.0
G1 X26.336 Y-72.042 F3000.0
M280 P0 S90.0 T150.0
G0 X30.610 Y-71.836 F3000.0
M280 P0 S25.0 T250.0
G1 X30.610 Y-71.164 F3000.0
G1 X30.028 Y-70.827 F3000.0
G1 X29.445 Y-71.164 F3000.0
G1 X29.445 Y-71.836 F3000.0
G1 X30.028 Y-72.173 F3000.0
G1 X30.610 Y-71.836 F3000.0
M280 P0 S90.0 T150.0
G0 X30.600 Y-71.158 F3000.0
M280 P0 S25.0 T250.0
G1 X30.600 Y-71.842 F3000.0
M280 P0 S90.0 T150.0
G0 X30.600 Y-71.158 F3000.0
M280 P0 S25.0 T250.0
G1 X30.600 Y-71.842 F3000.0
M280 P0 S90.0 T150.0
G0 X29.800 Y-70.958 F3000.0
M280 P0 S25.0 T250.0
G1 X29.800 Y-72.042 F3000.0
M280 P0 S90.0 T150.0
G0 X34.075 Y-71.836 F3000.0
M280 P0 S25.0 T250.0
G1 X34.075 Y-71.164 F3000.0
G1 X33.492 Y-70.827 F3000.0
G1 X32.909 Y-71.164 F3000.0
G1 X32.909 Y-71.836 F3000.0
G1 X33.492 Y-72.173 F3000.0
G1 X34.075 Y-71.836 F3000.0
M280 P0 S90.0 T150.0
G0 X34.065 Y-71.158 F3000.0
M280 P0 S25.0 T250.0
G1 X34.065 Y-71.842 F3000.0
M280 P0 S90.0 T150.0
G0 X34.065 Y-71.158 F3000.0
M280 P0 S25.0 T250.0
G1 X34.065 Y-71.842 F3000.0
M280 P0 S90.0 T150.0
G0 X33.265 Y-70.958 F3000.0
M280 P0 S25.0 T250.0
G1 X33.265 Y-72.042 F3000.0
M280 P0 S90.0 T150.0
G0 X37.539 Y-71.836 F3000.0
M280 P0 S25.0 T250.0
G1 X37.539 Y-71.164 F3000.0
G1 X36.956 Y-70.827 F3000.0
G1 X36.373 Y-71.164 F3000.0
G1 X36.373 Y-71.836 F3000.0
G1 X36.956 Y-72.173 F3000.0
G1 X37.539 Y-71.836 F3000.0
M280 P0 S90.0 T150.0
G0 X37.529 Y-71.158 F3000.0
M280 P0 S25.0 T250.0
G1 X37.529 Y-71.842 F3000.0
M280 P0 S90.0 T150.0
G0 X37.529 Y-71.158 F3000.0
M280 P0 S25.0 T250.0
G1 X37.529 Y-71.842 F3000.0
M280 P0 S90.0 T150.0
G0 X36.729 Y-70.958 F3000.0
M280 P0 S25.0 T250.0
G1 X36.729 Y-72.042 F3000.0
M280 P0 S90.0 T150.0
G0 X40.270 Y-71.625 F3000.0
M280 P0 S25.0 T250.0
G1 X40.270 Y-71.375 F3000.0
G1 X40.053 Y-71.250 F3000.0
G1 X39.837 Y-71.375 F3000.0
G1 X39.837 Y-71.625 F3000.0
G1 X40.053 Y-71.750 F3000.0
G1 X40.270 Y-71.625 F3000.0
M280 P0 S90.0 T150.0
G0 X47.294 Y-71.653 F3000.0
M280 P0 S25.0 T250.0
G1 X47.294 Y-71.347 F3000.0
G1 X47.030 Y-71.195 F3000.0
G1 X46.765 Y-71.347 F3000.0
G1 X46.765 Y-71.653 F3000.0
G1 X47.030 Y-71.805 F3000.0
G1 X47.294 Y-71.653 F3000.0
M280 P0 S90.0 T150.0
G0 X46.852 Y-71.297 F3000.0
M280 P0 S25.0 T250.0
G1 X46.852 Y-71.703 F3000.0
M280 P0 S90.0 T150.0
G0 X46.852 Y-71.297 F3000.0
M280 P0 S25.0 T250.0
G1 X46.852 Y-71.703 F3000.0
M280 P0 S90.0 T150.0
G0 X51.395 Y-71.836 F3000.0
M280 P0 S25.0 T250.0
G1 X51.395 Y-71.164 F3000.0
G1 X50.812 Y-70.827 F3000.0
G1 X50.229 Y-71.164 F3000.0
G1 X50.229 Y-71.836 F3000.0
G1 X50.812 Y-72.173 F3000.0
G1 X51.395 Y-71.836 F3000.0
M280 P0 S90.0 T150.0
G0 X51.385 Y-71.158 F3000.0
M280 P0 S25.0 T250.0
G1 X51.385 Y-71.842 F3000.0
M280 P0 S90.0 T150.0
G0 X51.385 Y-71.158 F3000.0
M280 P0 S25.0 T250.0
G1 X51.385 Y-71.842 F3000.0
M280 P0 S90.0 T150.0
G0 X50.585 Y-70.958 F3000.0
M280 P0 S25.0 T250.0
G1 X50.585 Y-72.042 F3000.0
M280 P0 S90.0 T150.0
G0 X54.859 Y-71.836 F3000.0
M280 P0 S25.0 T250.0
G1 X54.859 Y-71.164 F3000.0
G1 X54.276 Y-70.827 F3000.0
G1 X53.694 Y-71.164 F3000.0
G1 X53.694 Y-71.836 F3000.0
G1 X54.276 Y-72.173 F3000.0
G1 X54.859 Y-71.836 F3000.0
M280 P0 S90.0 T150.0
G0 X54.849 Y-71.158 F3000.0
M280 P0 S25.0 T250.0
G1 X54.849 Y-71.842 F3000.0
M280 P0 S90.0 T150.0
G0 X54.849 Y-71.158 F3000.0
M280 P0 S25.0 T250.0
G1 X54.849 Y-71.842 F3000.0
M280 P0 S90.0 T150.0
G0 X54.049 Y-70.958 F3000.0
M280 P0 S25.0 T250.0
G1 X54.049 Y-72.042 F3000.0
M280 P0 S90.0 T150.0
G0 X58.323 Y-71.836 F3000.0
M280 P0 S25.0 T250.0
G1 X58.323 Y-71.164 F3000.0
G1 X57.740 Y-70.827 F3000.0
G1 X57.158 Y-71.164 F3000.0
G1 X57.158 Y-71.836 F3000.0
G1 X57.740 Y-72.173 F3000.0
G1 X58.323 Y-71.836 F3000.0
M280 P0 S90.0 T150.0
G0 X58.313 Y-71.158 F3000.0
M280 P0 S25.0 T250.0
G1 X58.313 Y-71.842 F3000.0
M280 P0 S90.0 T150.0
G0 X58.313 Y-71.158 F3000.0
M280 P0 S25.0 T250.0
G1 X58.313 Y-71.842 F3000.0
M280 P0 S90.0 T150.0
G0 X57.513 Y-70.958 F3000.0
M280 P0 S25.0 T250.0
G1 X57.513 Y-72.042 F3000.0
M280 P0 S90.0 T150.0
G0 X61.439 Y-71.736 F3000.0
M280 P0 S25.0 T250.0
G1 X61.439 Y-71.264 F3000.0
G1 X61.030 Y-71.028 F3000.0
G1 X60.622 Y-71.264 F3000.0
G1 X60.622 Y-71.736 F3000.0
G1 X61.030 Y-71.972 F3000.0
G1 X61.439 Y-71.736 F3000.0
M280 P0 S90.0 T150.0
G0 X61.193 Y-71.122 F3000.0
M280 P0 S25.0 T250.0
G1 X61.193 Y-71.878 F3000.0
M280 P0 S90.0 T150.0
G0 X61.193 Y-71.122 F3000.0
M280 P0 S25.0 T250.0
G1 X61.193 Y-71.878 F3000.0
M280 P0 S90.0 T150.0
G0 X64.338 Y-71.573 F3000.0
M280 P0 S25.0 T250.0
G1 X64.338 Y-71.427 F3000.0
G1 X64.212 Y-71.354 F3000.0
G1 X64.086 Y-71.427 F3000.0
G1 X64.086 Y-71.573 F3000.0
G1 X64.212 Y-71.646 F3000.0
G1 X64.338 Y-71.573 F3000.0
M280 P0 S90.0 T150.0
G0 X68.307 Y-71.719 F3000.0
M280 P0 S25.0 T250.0
G1 X68.307 Y-71.281 F3000.0
G1 X67.928 Y-71.063 F3000.0
G1 X67.550 Y-71.281 F3000.0
G1 X67.550 Y-71.719 F3000.0
G1 X67.928 Y-71.937 F3000.0
G1 X68.307 Y-71.719 F3000.0
M280 P0 S90.0 T150.0
G0 X68.020 Y-71.116 F3000.0
M280 P0 S25.0 T250.0
G1 X68.020 Y-71.884 F3000.0
M280 P0 S90.0 T150.0
G0 X68.020 Y-71.116 F3000.0
M280 P0 S25.0 T250.0
G1 X68.020 Y-71.884 F3000.0
M280 P0 S90.0 T150.0
G0 X85.531 Y-71.691 F3000.0
M280 P0 S25.0 T250.0
G1 X85.531 Y-71.309 F3000.0
G1 X85.201 Y-71.118 F3000.0
G1 X84.870 Y-71.309 F3000.0
G1 X84.870 Y-71.691 F3000.0
G1 X85.201 Y-71.882 F3000.0
G1 X85.531 Y-71.691 F3000.0
M280 P0 S90.0 T150.0
G0 X85.179 Y-71.131 F3000.0
M280 P0 S25.0 T250.0
G1 X85.179 Y-71.869 F3000.0
M280 P0 S90.0 T150.0
G0 X85.179 Y-71.131 F3000.0
M280 P0 S25.0 T250.0
G1 X85.179 Y-71.869 F3000.0
M280 P0 S90.0 T150.0
G0 X88.431 Y-71.528 F3000.0
M280 P0 S25.0 T250.0
G1 X88.431 Y-71.472 F3000.0
G1 X88.383 Y-71.445 F3000.0
G1 X88.335 Y-71.472 F3000.0
G1 X88.335 Y-71.528 F3000.0
G1 X88.383 Y-71.555 F3000.0
G1 X88.431 Y-71.528 F3000.0
M280 P0 S90.0 T150.0
G0 X109.876 Y-71.719 F3000.0
M280 P0 S25.0 T250.0
G1 X109.876 Y-71.281 F3000.0
G1 X109.498 Y-71.063 F3000.0
G1 X109.119 Y-71.281 F3000.0
G1 X109.119 Y-71.719 F3000.0
G1 X109.498 Y-71.937 F3000.0
G1 X109.876 Y-71.719 F3000.0
M280 P0 S90.0 T150.0
G0 X109.589 Y-71.116 F3000.0
M280 P0 S25.0 T250.0
G1 X109.589 Y-71.884 F3000.0
M280 P0 S90.0 T150.0
G0 X109.589 Y-71.116 F3000.0
M280 P0 S25.0 T250.0
G1 X109.589 Y-71.884 F3000.0
M280 P0 S90.0 T150.0
G0 X112.908 Y-71.594 F3000.0
M280 P0 S25.0 T250.0
G1 X112.908 Y-71.406 F3000.0
G1 X112.746 Y-71.313 F3000.0
G1 X112.583 Y-71.406 F3000.0
G1 X112.583 Y-71.594 F3000.0
G1 X112.746 Y-71.687 F3000.0
G1 X112.908 Y-71.594 F3000.0
M280 P0 S90.0 T150.0
G0 X123.120 Y-71.542 F3000.0
M280 P0 S25.0 T250.0
G1 X123.120 Y-71.458 F3000.0
G1 X123.048 Y-71.417 F3000.0
G1 X122.976 Y-71.458 F3000.0
G1 X122.976 Y-71.542 F3000.0
G1 X123.048 Y-71.583 F3000.0
G1 X123.120 Y-71.542 F3000.0
M280 P0 S90.0 T150.0
G0 X127.605 Y-71.836 F3000.0
M280 P0 S25.0 T250.0
G1 X127.605 Y-71.164 F3000.0
G1 X127.022 Y-70.827 F3000.0
G1 X126.440 Y-71.164 F3000.0
G1 X126.440 Y-71.836 F3000.0
G1 X127.022 Y-72.173 F3000.0
G1 X127.605 Y-71.836 F3000.0
M280 P0 S90.0 T150.0
G0 X127.595 Y-71.158 F3000.0
M280 P0 S25.0 T250.0
G1 X127.595 Y-71.842 F3000.0
M280 P0 S90.0 T150.0
G0 X127.595 Y-71.158 F3000.0
M280 P0 S25.0 T250.0
G1 X127.595 Y-71.842 F3000.0
M280 P0 S90.0 T150.0
G0 X126.795 Y-70.958 F3000.0
M280 P0 S25.0 T250.0
G1 X126.795 Y-72.042 F3000.0
M280 P0 S90.0 T150.0
G0 X131.069 Y-71.836 F3000.0
M280 P0 S25.0 T250.0
G1 X131.069 Y-71.164 F3000.0
G1 X130.487 Y-70.827 F3000.0
G1 X129.904 Y-71.164 F3000.0
G1 X129.904 Y-71.836 F3000.0
G1 X130.487 Y-72.173 F3000.0
G1 X131.069 Y-71.836 F3000.0
M280 P0 S90.0 T150.0
G0 X131.059 Y-71.158 F3000.0
M280 P0 S25.0 T250.0
G1 X131.059 Y-71.842 F3000.0
M280 P0 S90.0 T150.0
