;Generated with Makelangelo 7.76.1
; 2025-11-13 at 12:43:03 ART
;FLAVOR:Marlin-polargraph
;MINX:-150.000
;MINY:-134.632
;MAXX:150.000
;MAXY:109.632
;Start of user gcode
G0 Y0
;End of user gcode
G28 X Y
M201 X100.0 Y100.0
M203 X3000.0 Y3000.0
M204 S100.0
M205 X10 Y10
M280 P0 S90.0 T150.0
M0 Ready black and click
G0 X-119.231 Y-121.308 F3000.0
M280 P0 S25.0 T250.0
G1 X-126.923 Y-116.867 F3000.0
M280 P0 S90.0 T150.0
G0 X-126.923 Y-116.867 F3000.0
M280 P0 S25.0 T250.0
G1 X-134.615 Y-121.308 F3000.0
M280 P0 S90.0 T150.0
G0 X-111.538 Y-116.867 F3000.0
M280 P0 S25.0 T250.0
G1 X-119.231 Y-121.308 F3000.0
M280 P0 S90.0 T150.0
G0 X-96.154 Y-116.867 F3000.0
M280 P0 S25.0 T250.0
G1 X-103.846 Y-121.308 F3000.0
M280 P0 S90.0 T150.0
G0 X-88.462 Y-130.191 F3000.0
M280 P0 S25.0 T250.0
G1 X-88.462 Y-121.308 F3000.0
M280 P0 S90.0 T150.0
G0 X-73.077 Y-121.308 F3000.0
M280 P0 S25.0 T250.0
G1 X-80.769 Y-116.867 F3000.0
M280 P0 S90.0 T150.0
G0 X-57.692 Y-121.308 F3000.0
M280 P0 S25.0 T250.0
G1 X-65.385 Y-116.867 F3000.0
M280 P0 S90.0 T150.0
G0 X-65.385 Y-116.867 F3000.0
M280 P0 S25.0 T250.0
G1 X-73.077 Y-121.308 F3000.0
M280 P0 S90.0 T150.0
G0 X-42.308 Y-121.308 F3000.0
M280 P0 S25.0 T250.0
G1 X-50.000 Y-116.867 F3000.0
M280 P0 S90.0 T150.0
G0 X-50.000 Y-116.867 F3000.0
M280 P0 S25.0 T250.0
G1 X-57.692 Y-121.308 F3000.0
M280 P0 S90.0 T150.0
G0 X-42.308 Y-130.191 F3000.0
M280 P0 S25.0 T250.0
G1 X-42.308 Y-121.308 F3000.0
M280 P0 S90.0 T150.0
G0 X-26.923 Y-121.308 F3000.0
M280 P0 S25.0 T250.0
G1 X-34.615 Y-116.867 F3000.0
M280 P0 S90.0 T150.0
G0 X-11.538 Y-121.308 F3000.0
M280 P0 S25.0 T250.0
G1 X-19.231 Y-116.867 F3000.0
M280 P0 S90.0 T150.0
G0 X-19.231 Y-116.867 F3000.0
M280 P0 S25.0 T250.0
G1 X-26.923 Y-121.308 F3000.0
M280 P0 S90.0 T150.0
G0 X-3.846 Y-116.867 F3000.0
M280 P0 S25.0 T250.0
G1 X-11.538 Y-121.308 F3000.0
M280 P0 S90.0 T150.0
G0 X3.846 Y-130.191 F3000.0
M280 P0 S25.0 T250.0
G1 X3.846 Y-121.308 F3000.0
M280 P0 S90.0 T150.0
G0 X19.231 Y-121.308 F3000.0
M280 P0 S25.0 T250.0
G1 X11.538 Y-116.867 F3000.0
M280 P0 S90.0 T150.0
G0 X34.615 Y-121.308 F3000.0
M280 P0 S25.0 T250.0
G1 X26.923 Y-116.867 F3000.0
M280 P0 S90.0 T150.0
G0 X26.923 Y-116.867 F3000.0
M280 P0 S25.0 T250.0
G1 X19.231 Y-121.308 F3000.0
M280 P0 S90.0 T150.0
G0 X50.000 Y-121.308 F3000.0
M280 P0 S25.0 T250.0
G1 X42.308 Y-116.867 F3000.0
M280 P0 S90.0 T150.0
G0 X57.692 Y-116.867 F3000.0
M280 P0 S25.0 T250.0
G1 X50.000 Y-121.308 F3000.0
M280 P0 S90.0 T150.0
G0 X65.385 Y-130.191 F3000.0
M280 P0 S25.0 T250.0
G1 X65.385 Y-121.308 F3000.0
M280 P0 S90.0 T150.0
G0 X80.769 Y-121.308 F3000.0
M280 P0 S25.0 T250.0
G1 X73.077 Y-116.867 F3000.0
M280 P0 S90.0 T150.0
G0 X96.154 Y-121.308 F3000.0
M280 P0 S25.0 T250.0
G1 X88.462 Y-116.867 F3000.0
M280 P0 S90.0 T150.0
G0 X96.154 Y-130.191 F3000.0
M280 P0 S25.0 T250.0
G1 X96.154 Y-121.308 F3000.0
M280 P0 S90.0 T150.0
G0 X111.538 Y-121.308 F3000.0
M280 P0 S25.0 T250.0
G1 X103.846 Y-116.867 F3000.0
M280 P0 S90.0 T150.0
G0 X126.923 Y-121.308 F3000.0
M280 P0 S25.0 T250.0
G1 X119.231 Y-116.867 F3000.0
M280 P0 S90.0 T150.0
G0 X119.231 Y-116.867 F3000.0
M280 P0 S25.0 T250.0
G1 X111.538 Y-121.308 F3000.0
M280 P0 S90.0 T150.0
G0 X-134.615 Y-103.544 F3000.0
M280 P0 S25.0 T250.0
G1 X-142.308 Y-107.985 F3000.0
M280 P0 S90.0 T150.0
G0 X-126.923 Y-116.867 F3000.0
M280 P0 S25.0 T250.0
G1 X-126.923 Y-107.985 F3000.0
M280 P0 S90.0 T150.0
G0 X-111.538 Y-107.985 F3000.0
M280 P0 S25.0 T250.0
G1 X-119.231 Y-103.544 F3000.0
M280 P0 S90.0 T150.0
G0 X-111.538 Y-116.867 F3000.0
M280 P0 S25.0 T250.0
G1 X-111.538 Y-107.985 F3000.0
M280 P0 S90.0 T150.0
G0 X-103.846 Y-103.544 F3000.0
M280 P0 S25.0 T250.0
G1 X-111.538 Y-107.985 F3000.0
M280 P0 S90.0 T150.0
G0 X-96.154 Y-116.867 F3000.0
M280 P0 S25.0 T250.0
G1 X-96.154 Y-107.985 F3000.0
M280 P0 S90.0 T150.0
G0 X-88.462 Y-103.544 F3000.0
M280 P0 S25.0 T250.0
G1 X-96.154 Y-107.985 F3000.0
M280 P0 S90.0 T150.0
G0 X-80.769 Y-107.985 F3000.0
M280 P0 S25.0 T250.0
G1 X-88.462 Y-103.544 F3000.0
M280 P0 S90.0 T150.0
G0 X-80.769 Y-116.867 F3000.0
M280 P0 S25.0 T250.0
G1 X-80.769 Y-107.985 F3000.0
M280 P0 S90.0 T150.0
G0 X-65.385 Y-107.985 F3000.0
M280 P0 S25.0 T250.0
G1 X-73.077 Y-103.544 F3000.0
M280 P0 S90.0 T150.0
G0 X-57.692 Y-103.544 F3000.0
M280 P0 S25.0 T250.0
G1 X-65.385 Y-107.985 F3000.0
M280 P0 S90.0 T150.0
G0 X-50.000 Y-107.985 F3000.0
M280 P0 S25.0 T250.0
G1 X-57.692 Y-103.544 F3000.0
M280 P0 S90.0 T150.0
G0 X-42.308 Y-103.544 F3000.0
M280 P0 S25.0 T250.0
G1 X-50.000 Y-107.985 F3000.0
M280 P0 S90.0 T150.0
G0 X-34.615 Y-107.985 F3000.0
M280 P0 S25.0 T250.0
G1 X-42.308 Y-103.544 F3000.0
M280 P0 S90.0 T150.0
G0 X-34.615 Y-116.867 F3000.0
M280 P0 S25.0 T250.0
G1 X-34.615 Y-107.985 F3000.0
M280 P0 S90.0 T150.0
G0 X-19.231 Y-107.985 F3000.0
M280 P0 S25.0 T250.0
G1 X-26.923 Y-103.544 F3000.0
M280 P0 S90.0 T150.0
G0 X-11.538 Y-103.544 F3000.0
M280 P0 S25.0 T250.0
G1 X-19.231 Y-107.985 F3000.0
M280 P0 S90.0 T150.0
G0 X-3.846 Y-116.867 F3000.0
M280 P0 S25.0 T250.0
G1 X-3.846 Y-107.985 F3000.0
M280 P0 S90.0 T150.0
G0 X3.846 Y-103.544 F3000.0
M280 P0 S25.0 T250.0
G1 X-3.846 Y-107.985 F3000.0
M280 P0 S90.0 T150.0
G0 X11.538 Y-107.985 F3000.0
M280 P0 S25.0 T250.0
G1 X3.846 Y-103.544 F3000.0
M280 P0 S90.0 T150.0
G0 X11.538 Y-116.867 F3000.0
M280 P0 S25.0 T250.0
G1 X11.538 Y-107.985 F3000.0
M280 P0 S90.0 T150.0
G0 X26.923 Y-107.985 F3000.0
M280 P0 S25.0 T250.0
G1 X19.231 Y-103.544 F3000.0
M280 P0 S90.0 T150.0
G0 X26.923 Y-116.867 F3000.0
M280 P0 S25.0 T250.0
G1 X26.923 Y-107.985 F3000.0
M280 P0 S90.0 T150.0
G0 X42.308 Y-107.985 F3000.0
M280 P0 S25.0 T250.0
G1 X34.615 Y-103.544 F3000.0
M280 P0 S90.0 T150.0
G0 X42.308 Y-116.867 F3000.0
M280 P0 S25.0 T250.0
G1 X42.308 Y-107.985 F3000.0
M280 P0 S90.0 T150.0
G0 X50.000 Y-103.544 F3000.0
M280 P0 S25.0 T250.0
G1 X42.308 Y-107.985 F3000.0
M280 P0 S90.0 T150.0
G0 X57.692 Y-107.985 F3000.0
M280 P0 S25.0 T250.0
G1 X50.000 Y-103.544 F3000.0
M280 P0 S90.0 T150.0
G0 X65.385 Y-103.544 F3000.0
M280 P0 S25.0 T250.0
G1 X57.692 Y-107.985 F3000.0
M280 P0 S90.0 T150.0
G0 X73.077 Y-107.985 F3000.0
M280 P0 S25.0 T250.0
G1 X65.385 Y-103.544 F3000.0
M280 P0 S90.0 T150.0
G0 X73.077 Y-116.867 F3000.0
M280 P0 S25.0 T250.0
G1 X73.077 Y-107.985 F3000.0
M280 P0 S90.0 T150.0
G0 X80.769 Y-103.544 F3000.0
M280 P0 S25.0 T250.0
G1 X73.077 Y-107.985 F3000.0
M280 P0 S90.0 T150.0
G0 X88.462 Y-107.985 F3000.0
M280 P0 S25.0 T250.0
G1 X80.769 Y-103.544 F3000.0
M280 P0 S90.0 T150.0
G0 X88.462 Y-116.867 F3000.0
M280 P0 S25.0 T250.0
G1 X88.462 Y-107.985 F3000.0
M280 P0 S90.0 T150.0
G0 X96.154 Y-103.544 F3000.0
M280 P0 S25.0 T250.0
G1 X88.462 Y-107.985 F3000.0
M280 P0 S90.0 T150.0
G0 X103.846 Y-116.867 F3000.0
M280 P0 S25.0 T250.0
G1 X103.846 Y-107.985 F3000.0
M280 P0 S90.0 T150.0
G0 X119.231 Y-107.985 F3000.0
M280 P0 S25.0 T250.0
G1 X111.538 Y-103.544 F3000.0
M280 P0 S90.0 T150.0
G0 X119.231 Y-116.867 F3000.0
M280 P0 S25.0 T250.0
G1 X119.231 Y-107.985 F3000.0
M280 P0 S90.0 T150.0
G0 X126.923 Y-103.544 F3000.0
M280 P0 S25.0 T250.0
G1 X119.231 Y-107.985 F3000.0
M280 P0 S90.0 T150.0
G0 X134.615 Y-116.867 F3000.0
M280 P0 S25.0 T250.0
G1 X134.615 Y-107.985 F3000.0
M280 P0 S90.0 T150.0
G0 X142.308 Y-103.544 F3000.0
M280 P0 S25.0 T250.0
G1 X134.615 Y-107.985 F3000.0
M280 P0 S90.0 T150.0
G0 X-134.615 Y-103.544 F3000.0
M280 P0 S25.0 T250.0
G1 X-134.615 Y-94.661 F3000.0
M280 P0 S90.0 T150.0
G0 X-119.231 Y-94.661 F3000.0
M280 P0 S25.0 T250.0
G1 X-126.923 Y-90.220 F3000.0
M280 P0 S90.0 T150.0
G0 X-119.231 Y-103.544 F3000.0
M280 P0 S25.0 T250.0
G1 X-119.231 Y-94.661 F3000.0
M280 P0 S90.0 T150.0
G0 X-103.846 Y-94.661 F3000.0
M280 P0 S25.0 T250.0
G1 X-111.538 Y-90.220 F3000.0
M280 P0 S90.0 T150.0
G0 X-88.462 Y-94.661 F3000.0
M280 P0 S25.0 T250.0
G1 X-96.154 Y-90.220 F3000.0
M280 P0 S90.0 T150.0
G0 X-88.462 Y-103.544 F3000.0
M280 P0 S25.0 T250.0
G1 X-88.462 Y-94.661 F3000.0
M280 P0 S90.0 T150.0
G0 X-80.769 Y-90.220 F3000.0
M280 P0 S25.0 T250.0
G1 X-88.462 Y-94.661 F3000.0
M280 P0 S90.0 T150.0
G0 X-73.077 Y-103.544 F3000.0
M280 P0 S25.0 T250.0
G1 X-73.077 Y-94.661 F3000.0
M280 P0 S90.0 T150.0
G0 X-65.385 Y-90.220 F3000.0
M280 P0 S25.0 T250.0
G1 X-73.077 Y-94.661 F3000.0
M280 P0 S90.0 T150.0
G0 X-50.000 Y-90.220 F3000.0
M280 P0 S25.0 T250.0
G1 X-57.692 Y-94.661 F3000.0
M280 P0 S90.0 T150.0
G0 X-42.308 Y-103.544 F3000.0
M280 P0 S25.0 T250.0
G1 X-42.308 Y-94.661 F3000.0
M280 P0 S90.0 T150.0
G0 X-26.923 Y-94.661 F3000.0
M280 P0 S25.0 T250.0
G1 X-34.615 Y-90.220 F3000.0
M280 P0 S90.0 T150.0
G0 X-26.923 Y-103.544 F3000.0
M280 P0 S25.0 T250.0
G1 X-26.923 Y-94.661 F3000.0
M280 P0 S90.0 T150.0
G0 X-11.538 Y-103.544 F3000.0
M280 P0 S25.0 T250.0
G1 X-11.538 Y-94.661 F3000.0
M280 P0 S90.0 T150.0
G0 X3.846 Y-94.661 F3000.0
M280 P0 S25.0 T250.0
G1 X-3.846 Y-90.220 F3000.0
M280 P0 S90.0 T150.0
G0 X19.231 Y-94.661 F3000.0
M280 P0 S25.0 T250.0
G1 X11.538 Y-90.220 F3000.0
M280 P0 S90.0 T150.0
G0 X19.231 Y-103.544 F3000.0
M280 P0 S25.0 T250.0
G1 X19.231 Y-94.661 F3000.0
M280 P0 S90.0 T150.0
G0 X34.615 Y-94.661 F3000.0
M280 P0 S25.0 T250.0
G1 X26.923 Y-90.220 F3000.0
M280 P0 S90.0 T150.0
G0 X26.923 Y-90.220 F3000.0
M280 P0 S25.0 T250.0
G1 X19.231 Y-94.661 F3000.0
M280 P0 S90.0 T150.0
G0 X50.000 Y-94.661 F3000.0
M280 P0 S25.0 T250.0
G1 X42.308 Y-90.220 F3000.0
M280 P0 S90.0 T150.0
G0 X42.308 Y-90.220 F3000.0
M280 P0 S25.0 T250.0
G1 X34.615 Y-94.661 F3000.0
M280 P0 S90.0 T150.0
G0 X65.385 Y-94.661 F3000.0
M280 P0 S25.0 T250.0
G1 X57.692 Y-90.220 F3000.0
M280 P0 S90.0 T150.0
G0 X57.692 Y-90.220 F3000.0
M280 P0 S25.0 T250.0
G1 X50.000 Y-94.661 F3000.0
M280 P0 S90.0 T150.0
G0 X80.769 Y-94.661 F3000.0
M280 P0 S25.0 T250.0
G1 X73.077 Y-90.220 F3000.0
M280 P0 S90.0 T150.0
G0 X73.077 Y-90.220 F3000.0
M280 P0 S25.0 T250.0
G1 X65.385 Y-94.661 F3000.0
M280 P0 S90.0 T150.0
G0 X88.462 Y-90.220 F3000.0
M280 P0 S25.0 T250.0
G1 X80.769 Y-94.661 F3000.0
M280 P0 S90.0 T150.0
G0 X96.154 Y-103.544 F3000.0
M280 P0 S25.0 T250.0
G1 X96.154 Y-94.661 F3000.0
M280 P0 S90.0 T150.0
G0 X111.538 Y-94.661 F3000.0
M280 P0 S25.0 T250.0
G1 X103.846 Y-90.220 F3000.0
M280 P0 S90.0 T150.0
G0 X111.538 Y-103.544 F3000.0
M280 P0 S25.0 T250.0
G1 X111.538 Y-94.661 F3000.0
M280 P0 S90.0 T150.0
G0 X119.231 Y-90.220 F3000.0
M280 P0 S25.0 T250.0
G1 X111.538 Y-94.661 F3000.0
M280 P0 S90.0 T150.0
G0 X134.615 Y-90.220 F3000.0
M280 P0 S25.0 T250.0
G1 X126.923 Y-94.661 F3000.0
M280 P0 S90.0 T150.0
G0 X-134.615 Y-76.897 F3000.0
M280 P0 S25.0 T250.0
G1 X-142.308 Y-81.338 F3000.0
M280 P0 S90.0 T150.0
G0 X-126.923 Y-81.338 F3000.0
M280 P0 S25.0 T250.0
G1 X-134.615 Y-76.897 F3000.0
M280 P0 S90.0 T150.0
G0 X-126.923 Y-90.220 F3000.0
M280 P0 S25.0 T250.0
G1 X-126.923 Y-81.338 F3000.0
M280 P0 S90.0 T150.0
G0 X-111.538 Y-81.338 F3000.0
M280 P0 S25.0 T250.0
G1 X-119.231 Y-76.897 F3000.0
M280 P0 S90.0 T150.0
G0 X-111.538 Y-90.220 F3000.0
M280 P0 S25.0 T250.0
G1 X-111.538 Y-81.338 F3000.0
M280 P0 S90.0 T150.0
G0 X-96.154 Y-81.338 F3000.0
M280 P0 S25.0 T250.0
G1 X-103.846 Y-76.897 F3000.0
M280 P0 S90.0 T150.0
G0 X-96.154 Y-90.220 F3000.0
M280 P0 S25.0 T250.0
G1 X-96.154 Y-81.338 F3000.0
M280 P0 S90.0 T150.0
G0 X-80.769 Y-81.338 F3000.0
M280 P0 S25.0 T250.0
G1 X-88.462 Y-76.897 F3000.0
M280 P0 S90.0 T150.0
G0 X-73.077 Y-76.897 F3000.0
M280 P0 S25.0 T250.0
G1 X-80.769 Y-81.338 F3000.0
M280 P0 S90.0 T150.0
G0 X-65.385 Y-81.338 F3000.0
M280 P0 S25.0 T250.0
G1 X-73.077 Y-76.897 F3000.0
M280 P0 S90.0 T150.0
G0 X-65.385 Y-90.220 F3000.0
M280 P0 S25.0 T250.0
G1 X-65.385 Y-81.338 F3000.0
M280 P0 S90.0 T150.0
G0 X-57.692 Y-76.897 F3000.0
M280 P0 S25.0 T250.0
G1 X-65.385 Y-81.338 F3000.0
M280 P0 S90.0 T150.0
G0 X-50.000 Y-81.338 F3000.0
M280 P0 S25.0 T250.0
G1 X-57.692 Y-76.897 F3000.0
M280 P0 S90.0 T150.0
G0 X-50.000 Y-90.220 F3000.0
M280 P0 S25.0 T250.0
G1 X-50.000 Y-81.338 F3000.0
M280 P0 S90.0 T150.0
G0 X-42.308 Y-76.897 F3000.0
M280 P0 S25.0 T250.0
G1 X-50.000 Y-81.338 F3000.0
M280 P0 S90.0 T150.0
G0 X-34.615 Y-81.338 F3000.0
M280 P0 S25.0 T250.0
G1 X-42.308 Y-76.897 F3000.0
M280 P0 S90.0 T150.0
G0 X-34.615 Y-90.220 F3000.0
M280 P0 S25.0 T250.0
G1 X-34.615 Y-81.338 F3000.0
M280 P0 S90.0 T150.0
G0 X-19.231 Y-81.338 F3000.0
M280 P0 S25.0 T250.0
G1 X-26.923 Y-76.897 F3000.0
M280 P0 S90.0 T150.0
G0 X-19.231 Y-90.220 F3000.0
M280 P0 S25.0 T250.0
G1 X-19.231 Y-81.338 F3000.0
M280 P0 S90.0 T150.0
G0 X-11.538 Y-76.897 F3000.0
M280 P0 S25.0 T250.0
G1 X-19.231 Y-81.338 F3000.0
M280 P0 S90.0 T150.0
G0 X-3.846 Y-81.338 F3000.0
M280 P0 S25.0 T250.0
G1 X-11.538 Y-76.897 F3000.0
M280 P0 S90.0 T150.0
G0 X-3.846 Y-90.220 F3000.0
M280 P0 S25.0 T250.0
G1 X-3.846 Y-81.338 F3000.0
M280 P0 S90.0 T150.0
G0 X11.538 Y-81.338 F3000.0
M280 P0 S25.0 T250.0
G1 X3.846 Y-76.897 F3000.0
M280 P0 S90.0 T150.0
G0 X11.538 Y-90.220 F3000.0
M280 P0 S25.0 T250.0
G1 X11.538 Y-81.338 F3000.0
M280 P0 S90.0 T150.0
G0 X26.923 Y-81.338 F3000.0
M280 P0 S25.0 T250.0
G1 X19.231 Y-76.897 F3000.0
M280 P0 S90.0 T150.0
G0 X26.923 Y-90.220 F3000.0
M280 P0 S25.0 T250.0
G1 X26.923 Y-81.338 F3000.0
M280 P0 S90.0 T150.0
G0 X50.000 Y-76.897 F3000.0
M280 P0 S25.0 T250.0
G1 X42.308 Y-81.338 F3000.0
M280 P0 S90.0 T150.0
G0 X57.692 Y-81.338 F3000.0
M280 P0 S25.0 T250.0
G1 X50.000 Y-76.897 F3000.0
M280 P0 S90.0 T150.0
G0 X65.385 Y-76.897 F3000.0
M280 P0 S25.0 T250.0
G1 X57.692 Y-81.338 F3000.0
M280 P0 S90.0 T150.0
G0 X73.077 Y-90.220 F3000.0
M280 P0 S25.0 T250.0
G1 X73.077 Y-81.338 F3000.0
M280 P0 S90.0 T150.0
G0 X80.769 Y-76.897 F3000.0
M280 P0 S25.0 T250.0
G1 X73.077 Y-81.338 F3000.0
M280 P0 S90.0 T150.0
G0 X88.462 Y-90.220 F3000.0
M280 P0 S25.0 T250.0
G1 X88.462 Y-81.338 F3000.0
M280 P0 S90.0 T150.0
G0 X96.154 Y-76.897 F3000.0
M280 P0 S25.0 T250.0
G1 X88.462 Y-81.338 F3000.0
M280 P0 S90.0 T150.0
G0 X103.846 Y-81.338 F3000.0
M280 P0 S25.0 T250.0
G1 X96.154 Y-76.897 F3000.0
M280 P0 S90.0 T150.0
G0 X103.846 Y-90.220 F3000.0
M280 P0 S25.0 T250.0
G1 X103.846 Y-81.338 F3000.0
M280 P0 S90.0 T150.0
G0 X119.231 Y-81.338 F3000.0
M280 P0 S25.0 T250.0
G1 X111.538 Y-76.897 F3000.0
M280 P0 S90.0 T150.0
G0 X119.231 Y-90.220 F3000.0
M280 P0 S25.0 T250.0
G1 X119.231 Y-81.338 F3000.0
M280 P0 S90.0 T150.0
G0 X134.615 Y-81.338 F3000.0
M280 P0 S25.0 T250.0
G1 X126.923 Y-76.897 F3000.0
M280 P0 S90.0 T150.0
G0 X134.615 Y-90.220 F3000.0
M280 P0 S25.0 T250.0
G1 X134.615 Y-81.338 F3000.0
M280 P0 S90.0 T150.0
G0 X-119.231 Y-68.014 F3000.0
M280 P0 S25.0 T250.0
G1 X-126.923 Y-63.573 F3000.0
M280 P0 S90.0 T150.0
G0 X-126.923 Y-63.573 F3000.0
M280 P0 S25.0 T250.0
G1 X-134.615 Y-68.014 F3000.0
M280 P0 S90.0 T150.0
G0 X-119.231 Y-76.897 F3000.0
M280 P0 S25.0 T250.0
G1 X-119.231 Y-68.014 F3000.0
M280 P0 S90.0 T150.0
G0 X-103.846 Y-68.014 F3000.0
M280 P0 S25.0 T250.0
G1 X-111.538 Y-63.573 F3000.0
M280 P0 S90.0 T150.0
G0 X-103.846 Y-76.897 F3000.0
M280 P0 S25.0 T250.0
G1 X-103.846 Y-68.014 F3000.0
M280 P0 S90.0 T150.0
G0 X-88.462 Y-68.014 F3000.0
M280 P0 S25.0 T250.0
G1 X-96.154 Y-63.573 F3000.0
M280 P0 S90.0 T150.0
G0 X-88.462 Y-76.897 F3000.0
M280 P0 S25.0 T250.0
G1 X-88.462 Y-68.014 F3000.0
M280 P0 S90.0 T150.0
G0 X-73.077 Y-68.014 F3000.0
M280 P0 S25.0 T250.0
G1 X-80.769 Y-63.573 F3000.0
M280 P0 S90.0 T150.0
G0 X-80.769 Y-63.573 F3000.0
M280 P0 S25.0 T250.0
G1 X-88.462 Y-68.014 F3000.0
M280 P0 S90.0 T150.0
G0 X-57.692 Y-68.014 F3000.0
M280 P0 S25.0 T250.0
G1 X-65.385 Y-63.573 F3000.0
M280 P0 S90.0 T150.0
G0 X-50.000 Y-63.573 F3000.0
M280 P0 S25.0 T250.0
G1 X-57.692 Y-68.014 F3000.0
M280 P0 S90.0 T150.0
G0 X-42.308 Y-76.897 F3000.0
M280 P0 S25.0 T250.0
G1 X-42.308 Y-68.014 F3000.0
M280 P0 S90.0 T150.0
G0 X-26.923 Y-68.014 F3000.0
M280 P0 S25.0 T250.0
G1 X-34.615 Y-63.573 F3000.0
M280 P0 S90.0 T150.0
G0 X-26.923 Y-76.897 F3000.0
M280 P0 S25.0 T250.0
G1 X-26.923 Y-68.014 F3000.0
M280 P0 S90.0 T150.0
G0 X-11.538 Y-68.014 F3000.0
M280 P0 S25.0 T250.0
G1 X-19.231 Y-63.573 F3000.0
M280 P0 S90.0 T150.0
G0 X3.846 Y-68.014 F3000.0
M280 P0 S25.0 T250.0
G1 X-3.846 Y-63.573 F3000.0
M280 P0 S90.0 T150.0
G0 X-3.846 Y-63.573 F3000.0
M280 P0 S25.0 T250.0
G1 X-11.538 Y-68.014 F3000.0
M280 P0 S90.0 T150.0
G0 X3.846 Y-76.897 F3000.0
M280 P0 S25.0 T250.0
G1 X3.846 Y-68.014 F3000.0
M280 P0 S90.0 T150.0
