;Generated with Makelangelo 7.76.1
; 2025-11-13 at 13:23:16 ART
;FLAVOR:Marlin-polargraph
;MINX:-115.272
;MINY:-251.074
;MAXX:115.375
;MAXY:241.356
;Start of user gcode
G0 Y0
;End of user gcode
G28 X Y
M201 X100.0 Y100.0
M203 X3000.0 Y3000.0
M204 S100.0
M205 X10 Y10
M280 P0 S90.0 T150.0
M0 Ready black and click
G0 X-56.266 Y241.356 F3000.0
M280 P0 S25.0 T250.0
G1 X-57.186 Y240.962 F3000.0
G1 X-58.105 Y240.566 F3000.0
G1 X-59.023 Y240.167 F3000.0
G1 X-59.940 Y239.766 F3000.0
G1 X-60.856 Y239.362 F3000.0
M280 P0 S90.0 T150.0
G0 X-54.846 Y240.872 F3000.0
M280 P0 S25.0 T250.0
G1 X-55.767 Y240.481 F3000.0
G1 X-56.688 Y240.088 F3000.0
G1 X-57.607 Y239.692 F3000.0
G1 X-58.525 Y239.293 F3000.0
G1 X-59.442 Y238.893 F3000.0
G1 X-60.358 Y238.489 F3000.0
G1 X-61.272 Y238.083 F3000.0
M280 P0 S90.0 T150.0
G0 X-54.348 Y239.997 F3000.0
M280 P0 S25.0 T250.0
G1 X-55.269 Y239.606 F3000.0
G1 X-56.189 Y239.213 F3000.0
M280 P0 S90.0 T150.0
G0 X-53.850 Y239.122 F3000.0
M280 P0 S25.0 T250.0
G1 X-54.771 Y238.732 F3000.0
G1 X-55.691 Y238.339 F3000.0
M280 P0 S90.0 T150.0
G0 X-59.361 Y236.743 F3000.0
M280 P0 S25.0 T250.0
G1 X-60.276 Y236.338 F3000.0
M280 P0 S90.0 T150.0
G0 X-53.641 Y238.125 F3000.0
M280 P0 S25.0 T250.0
G1 X-54.562 Y237.734 F3000.0
G1 X-55.482 Y237.340 F3000.0
M280 P0 S90.0 T150.0
G0 X-58.237 Y236.145 F3000.0
M280 P0 S25.0 T250.0
G1 X-59.153 Y235.742 F3000.0
G1 X-60.067 Y235.336 F3000.0
G1 X-60.981 Y234.927 F3000.0
G1 X-61.894 Y234.516 F3000.0
M280 P0 S90.0 T150.0
G0 X-52.220 Y237.638 F3000.0
M280 P0 S25.0 T250.0
G1 X-53.142 Y237.250 F3000.0
G1 X-54.064 Y236.859 F3000.0
G1 X-54.984 Y236.466 F3000.0
M280 P0 S90.0 T150.0
G0 X-58.654 Y234.869 F3000.0
M280 P0 S25.0 T250.0
G1 X-59.569 Y234.463 F3000.0
G1 X-60.483 Y234.055 F3000.0
G1 X-61.396 Y233.644 F3000.0
M280 P0 S90.0 T150.0
G0 X-51.722 Y236.762 F3000.0
M280 P0 S25.0 T250.0
G1 X-52.644 Y236.374 F3000.0
G1 X-53.566 Y235.984 F3000.0
M280 P0 S90.0 T150.0
G0 X-59.985 Y233.182 F3000.0
M280 P0 S25.0 T250.0
G1 X-60.897 Y232.772 F3000.0
M280 P0 S90.0 T150.0
G0 X-62.719 Y231.944 F3000.0
M280 P0 S25.0 T250.0
G1 X-63.628 Y231.526 F3000.0
G1 X-64.536 Y231.105 F3000.0
M280 P0 S90.0 T150.0
G0 X-50.589 Y236.151 F3000.0
M280 P0 S25.0 T250.0
G1 X-51.512 Y235.765 F3000.0
G1 X-52.435 Y235.377 F3000.0
G1 X-53.356 Y234.986 F3000.0
M280 P0 S90.0 T150.0
G0 X-59.776 Y232.180 F3000.0
M280 P0 S25.0 T250.0
G1 X-60.689 Y231.769 F3000.0
G1 X-61.600 Y231.355 F3000.0
G1 X-62.511 Y230.939 F3000.0
G1 X-63.420 Y230.521 F3000.0
G1 X-64.328 Y230.100 F3000.0
G1 X-65.235 Y229.676 F3000.0
M280 P0 S90.0 T150.0
G0 X-67.045 Y228.821 F3000.0
M280 P0 S25.0 T250.0
G1 X-67.948 Y228.390 F3000.0
G1 X-68.850 Y227.956 F3000.0
M280 P0 S90.0 T150.0
G0 X-48.240 Y236.038 F3000.0
M280 P0 S25.0 T250.0
G1 X-49.166 Y235.658 F3000.0
G1 X-50.090 Y235.275 F3000.0
G1 X-51.014 Y234.890 F3000.0
G1 X-51.937 Y234.502 F3000.0
M280 P0 S90.0 T150.0
G0 X-59.278 Y231.307 F3000.0
M280 P0 S25.0 T250.0
G1 X-60.191 Y230.897 F3000.0
G1 X-61.102 Y230.483 F3000.0
G1 X-62.013 Y230.068 F3000.0
G1 X-62.922 Y229.649 F3000.0
G1 X-63.830 Y229.228 F3000.0
G1 X-64.737 Y228.805 F3000.0
G1 X-65.642 Y228.379 F3000.0
G1 X-66.547 Y227.951 F3000.0
G1 X-67.450 Y227.520 F3000.0
G1 X-68.352 Y227.087 F3000.0
G1 X-69.253 Y226.651 F3000.0
G1 X-70.153 Y226.212 F3000.0
M280 P0 S90.0 T150.0
G0 X-45.887 Y235.914 F3000.0
M280 P0 S25.0 T250.0
G1 X-46.815 Y235.539 F3000.0
G1 X-47.742 Y235.162 F3000.0
G1 X-48.668 Y234.782 F3000.0
G1 X-49.592 Y234.399 F3000.0
G1 X-50.516 Y234.014 F3000.0
M280 P0 S90.0 T150.0
G0 X-60.604 Y229.611 F3000.0
M280 P0 S25.0 T250.0
G1 X-61.514 Y229.196 F3000.0
M280 P0 S90.0 T150.0
G0 X-62.424 Y228.778 F3000.0
M280 P0 S25.0 T250.0
G1 X-63.332 Y228.357 F3000.0
G1 X-64.238 Y227.934 F3000.0
G1 X-65.144 Y227.509 F3000.0
G1 X-66.048 Y227.080 F3000.0
G1 X-66.952 Y226.650 F3000.0
G1 X-67.854 Y226.217 F3000.0
G1 X-68.755 Y225.781 F3000.0
G1 X-69.654 Y225.343 F3000.0
G1 X-70.553 Y224.902 F3000.0
M280 P0 S90.0 T150.0
G0 X-45.389 Y235.036 F3000.0
M280 P0 S25.0 T250.0
G1 X-46.317 Y234.662 F3000.0
M280 P0 S90.0 T150.0
G0 X-68.256 Y224.911 F3000.0
M280 P0 S25.0 T250.0
G1 X-69.156 Y224.473 F3000.0
G1 X-70.054 Y224.033 F3000.0
M280 P0 S90.0 T150.0
G0 X-41.456 Y235.516 F3000.0
M280 P0 S25.0 T250.0
G1 X-42.388 Y235.152 F3000.0
G1 X-43.320 Y234.785 F3000.0
G1 X-44.250 Y234.415 F3000.0
G1 X-45.179 Y234.043 F3000.0
M280 P0 S90.0 T150.0
G0 X-68.048 Y223.901 F3000.0
M280 P0 S25.0 T250.0
G1 X-68.947 Y223.462 F3000.0
G1 X-69.846 Y223.021 F3000.0
M280 P0 S90.0 T150.0
G0 X-39.090 Y235.357 F3000.0
M280 P0 S25.0 T250.0
G1 X-40.025 Y234.999 F3000.0
G1 X-40.958 Y234.637 F3000.0
G1 X-41.890 Y234.273 F3000.0
G1 X-42.821 Y233.906 F3000.0
G1 X-43.751 Y233.537 F3000.0
M280 P0 S90.0 T150.0
G0 X-67.550 Y223.031 F3000.0
M280 P0 S25.0 T250.0
G1 X-68.449 Y222.593 F3000.0
G1 X-69.347 Y222.152 F3000.0
M280 P0 S90.0 T150.0
G0 X-36.720 Y235.186 F3000.0
M280 P0 S25.0 T250.0
G1 X-37.657 Y234.833 F3000.0
G1 X-38.592 Y234.477 F3000.0
G1 X-39.526 Y234.119 F3000.0
G1 X-40.459 Y233.758 F3000.0
G1 X-41.392 Y233.394 F3000.0
G1 X-42.323 Y233.028 F3000.0
G1 X-43.253 Y232.659 F3000.0
M280 P0 S90.0 T150.0
G0 X-67.051 Y222.161 F3000.0
M280 P0 S25.0 T250.0
G1 X-67.951 Y221.723 F3000.0
G1 X-68.849 Y221.282 F3000.0
M280 P0 S90.0 T150.0
G0 X-36.509 Y234.197 F3000.0
M280 P0 S25.0 T250.0
G1 X-37.446 Y233.844 F3000.0
G1 X-38.381 Y233.487 F3000.0
M280 P0 S90.0 T150.0
G0 X-41.182 Y232.403 F3000.0
M280 P0 S25.0 T250.0
G1 X-42.113 Y232.036 F3000.0
G1 X-43.043 Y231.666 F3000.0
M280 P0 S90.0 T150.0
G0 X-66.843 Y221.151 F3000.0
M280 P0 S25.0 T250.0
G1 X-67.742 Y220.712 F3000.0
M280 P0 S90.0 T150.0
G0 X-35.073 Y233.667 F3000.0
M280 P0 S25.0 T250.0
G1 X-36.011 Y233.316 F3000.0
G1 X-36.947 Y232.963 F3000.0
M280 P0 S90.0 T150.0
G0 X-41.614 Y231.158 F3000.0
M280 P0 S25.0 T250.0
G1 X-42.545 Y230.789 F3000.0
G1 X-43.474 Y230.417 F3000.0
M280 P0 S90.0 T150.0
G0 X-65.444 Y220.718 F3000.0
M280 P0 S25.0 T250.0
G1 X-66.344 Y220.281 F3000.0
G1 X-67.244 Y219.843 F3000.0
M280 P0 S90.0 T150.0
G0 X-33.636 Y233.133 F3000.0
M280 P0 S25.0 T250.0
G1 X-34.575 Y232.785 F3000.0
G1 X-35.512 Y232.435 F3000.0
G1 X-36.449 Y232.083 F3000.0
M280 P0 S90.0 T150.0
G0 X-41.116 Y230.279 F3000.0
M280 P0 S25.0 T250.0
G1 X-42.046 Y229.911 F3000.0
G1 X-42.976 Y229.539 F3000.0
G1 X-43.904 Y229.165 F3000.0
M280 P0 S90.0 T150.0
G0 X-64.945 Y219.848 F3000.0
M280 P0 S25.0 T250.0
G1 X-65.846 Y219.412 F3000.0
G1 X-66.746 Y218.973 F3000.0
G1 X-67.644 Y218.532 F3000.0
M280 P0 S90.0 T150.0
G0 X-20.850 Y236.517 F3000.0
M280 P0 S25.0 T250.0
G1 X-21.801 Y236.205 F3000.0
G1 X-22.751 Y235.891 F3000.0
G1 X-23.699 Y235.573 F3000.0
G1 X-24.647 Y235.253 F3000.0
G1 X-25.595 Y234.930 F3000.0
G1 X-26.541 Y234.605 F3000.0
M280 P0 S90.0 T150.0
G0 X-33.138 Y232.251 F3000.0
M280 P0 S25.0 T250.0
G1 X-34.076 Y231.904 F3000.0
G1 X-35.014 Y231.554 F3000.0
M280 P0 S90.0 T150.0
G0 X-41.548 Y229.033 F3000.0
M280 P0 S25.0 T250.0
G1 X-42.477 Y228.662 F3000.0
G1 X-43.406 Y228.288 F3000.0
G1 X-44.333 Y227.912 F3000.0
M280 P0 S90.0 T150.0
G0 X-65.348 Y218.542 F3000.0
M280 P0 S25.0 T250.0
G1 X-66.247 Y218.104 F3000.0
G1 X-67.145 Y217.663 F3000.0
G1 X-68.042 Y217.219 F3000.0
M280 P0 S90.0 T150.0
G0 X-20.636 Y235.535 F3000.0
M280 P0 S25.0 T250.0
G1 X-21.587 Y235.223 F3000.0
G1 X-22.537 Y234.908 F3000.0
M280 P0 S90.0 T150.0
G0 X-24.435 Y234.269 F3000.0
M280 P0 S25.0 T250.0
G1 X-25.382 Y233.946 F3000.0
G1 X-26.328 Y233.620 F3000.0
M280 P0 S90.0 T150.0
G0 X-32.926 Y231.263 F3000.0
M280 P0 S25.0 T250.0
G1 X-33.865 Y230.915 F3000.0
M280 P0 S90.0 T150.0
G0 X-42.268 Y227.668 F3000.0
M280 P0 S25.0 T250.0
G1 X-43.196 Y227.294 F3000.0
M280 P0 S90.0 T150.0
G0 X-66.039 Y217.092 F3000.0
M280 P0 S25.0 T250.0
G1 X-66.937 Y216.651 F3000.0
G1 X-67.834 Y216.206 F3000.0
M280 P0 S90.0 T150.0
G0 X-17.279 Y235.566 F3000.0
M280 P0 S25.0 T250.0
G1 X-18.232 Y235.262 F3000.0
G1 X-19.185 Y234.956 F3000.0
G1 X-20.137 Y234.646 F3000.0
G1 X-21.088 Y234.335 F3000.0
M280 P0 S90.0 T150.0
G0 X-24.883 Y233.060 F3000.0
M280 P0 S25.0 T250.0
G1 X-25.829 Y232.734 F3000.0
G1 X-26.775 Y232.406 F3000.0
M280 P0 S90.0 T150.0
G0 X-32.428 Y230.381 F3000.0
M280 P0 S25.0 T250.0
G1 X-33.366 Y230.034 F3000.0
G1 X-34.304 Y229.684 F3000.0
M280 P0 S90.0 T150.0
G0 X-41.769 Y226.791 F3000.0
M280 P0 S25.0 T250.0
G1 X-42.698 Y226.417 F3000.0
G1 X-43.625 Y226.041 F3000.0
M280 P0 S90.0 T150.0
G0 X-66.438 Y215.781 F3000.0
M280 P0 S25.0 T250.0
G1 X-67.335 Y215.337 F3000.0
G1 X-68.231 Y214.891 F3000.0
M280 P0 S90.0 T150.0
G0 X-11.039 Y236.436 F3000.0
M280 P0 S25.0 T250.0
G1 X-11.998 Y236.149 F3000.0
G1 X-12.956 Y235.860 F3000.0
G1 X-13.913 Y235.568 F3000.0
G1 X-14.869 Y235.273 F3000.0
G1 X-15.825 Y234.975 F3000.0
G1 X-16.779 Y234.675 F3000.0
G1 X-17.733 Y234.372 F3000.0
G1 X-18.686 Y234.066 F3000.0
G1 X-19.638 Y233.757 F3000.0
G1 X-20.589 Y233.446 F3000.0
M280 P0 S90.0 T150.0
G0 X-25.330 Y231.849 F3000.0
M280 P0 S25.0 T250.0
G1 X-26.276 Y231.521 F3000.0
G1 X-27.220 Y231.191 F3000.0
G1 X-28.164 Y230.858 F3000.0
G1 X-29.107 Y230.522 F3000.0
M280 P0 S90.0 T150.0
G0 X-31.929 Y229.499 F3000.0
M280 P0 S25.0 T250.0
G1 X-32.868 Y229.152 F3000.0
G1 X-33.806 Y228.803 F3000.0
M280 P0 S90.0 T150.0
G0 X-41.271 Y225.913 F3000.0
M280 P0 S25.0 T250.0
G1 X-42.199 Y225.540 F3000.0
G1 X-43.127 Y225.164 F3000.0
G1 X-44.053 Y224.786 F3000.0
M280 P0 S90.0 T150.0
G0 X-65.940 Y214.912 F3000.0
M280 P0 S25.0 T250.0
G1 X-66.837 Y214.468 F3000.0
G1 X-67.732 Y214.022 F3000.0
G1 X-68.627 Y213.573 F3000.0
G1 X-69.520 Y213.121 F3000.0
M280 P0 S90.0 T150.0
G0 X-6.979 Y236.577 F3000.0
M280 P0 S25.0 T250.0
G1 X-7.941 Y236.301 F3000.0
M280 P0 S90.0 T150.0
G0 X-8.903 Y236.023 F3000.0
M280 P0 S25.0 T250.0
G1 X-9.863 Y235.741 F3000.0
G1 X-10.823 Y235.457 F3000.0
G1 X-11.782 Y235.170 F3000.0
G1 X-12.740 Y234.880 F3000.0
G1 X-13.698 Y234.588 F3000.0
G1 X-14.654 Y234.293 F3000.0
G1 X-15.610 Y233.995 F3000.0
G1 X-16.565 Y233.694 F3000.0
G1 X-17.519 Y233.390 F3000.0
G1 X-18.472 Y233.084 F3000.0
G1 X-19.424 Y232.775 F3000.0
M280 P0 S90.0 T150.0
G0 X-25.118 Y230.864 F3000.0
M280 P0 S25.0 T250.0
G1 X-26.063 Y230.536 F3000.0
G1 X-27.008 Y230.205 F3000.0
G1 X-27.952 Y229.872 F3000.0
G1 X-28.895 Y229.536 F3000.0
M280 P0 S90.0 T150.0
G0 X-31.718 Y228.511 F3000.0
M280 P0 S25.0 T250.0
G1 X-32.657 Y228.164 F3000.0
G1 X-33.595 Y227.814 F3000.0
M280 P0 S90.0 T150.0
G0 X-41.061 Y224.920 F3000.0
M280 P0 S25.0 T250.0
G1 X-41.990 Y224.546 F3000.0
G1 X-42.917 Y224.170 F3000.0
G1 X-43.844 Y223.791 F3000.0
M280 P0 S90.0 T150.0
G0 X-66.628 Y213.455 F3000.0
M280 P0 S25.0 T250.0
G1 X-67.524 Y213.008 F3000.0
G1 X-68.418 Y212.558 F3000.0
G1 X-69.311 Y212.106 F3000.0
G1 X-70.202 Y211.651 F3000.0
M280 P0 S90.0 T150.0
G0 X-6.479 Y235.680 F3000.0
M280 P0 S25.0 T250.0
G1 X-7.441 Y235.405 F3000.0
G1 X-8.403 Y235.127 F3000.0
G1 X-9.363 Y234.846 F3000.0
G1 X-10.323 Y234.562 F3000.0
M280 P0 S90.0 T150.0
G0 X-27.453 Y228.988 F3000.0
M280 P0 S25.0 T250.0
G1 X-28.396 Y228.652 F3000.0
M280 P0 S90.0 T150.0
G0 X-31.219 Y227.629 F3000.0
M280 P0 S25.0 T250.0
G1 X-32.158 Y227.282 F3000.0
M280 P0 S90.0 T150.0
G0 X-41.491 Y223.669 F3000.0
M280 P0 S25.0 T250.0
G1 X-42.419 Y223.293 F3000.0
M280 P0 S90.0 T150.0
G0 X-67.919 Y211.690 F3000.0
M280 P0 S25.0 T250.0
G1 X-68.812 Y211.237 F3000.0
M280 P0 S90.0 T150.0
G0 X-5.015 Y235.054 F3000.0
M280 P0 S25.0 T250.0
G1 X-5.979 Y234.783 F3000.0
G1 X-6.941 Y234.508 F3000.0
M280 P0 S90.0 T150.0
G0 X-7.903 Y234.231 F3000.0
M280 P0 S25.0 T250.0
G1 X-8.863 Y233.951 F3000.0
M280 P0 S90.0 T150.0
G0 X-27.897 Y227.769 F3000.0
M280 P0 S25.0 T250.0
G1 X-28.839 Y227.431 F3000.0
G1 X-29.780 Y227.090 F3000.0
G1 X-30.720 Y226.747 F3000.0
G1 X-31.659 Y226.401 F3000.0
G1 X-32.597 Y226.052 F3000.0
M280 P0 S90.0 T150.0
G0 X-40.993 Y222.792 F3000.0
M280 P0 S25.0 T250.0
G1 X-41.921 Y222.416 F3000.0
G1 X-42.847 Y222.038 F3000.0
M280 P0 S90.0 T150.0
G0 X-56.608 Y216.043 F3000.0
M280 P0 S25.0 T250.0
G1 X-57.516 Y215.622 F3000.0
G1 X-58.422 Y215.199 F3000.0
M280 P0 S90.0 T150.0
G0 X-67.421 Y210.821 F3000.0
M280 P0 S25.0 T250.0
G1 X-68.314 Y210.369 F3000.0
G1 X-69.205 Y209.914 F3000.0
G1 X-70.095 Y209.457 F3000.0
M280 P0 S90.0 T150.0
G0 X-4.515 Y234.156 F3000.0
M280 P0 S25.0 T250.0
G1 X-5.478 Y233.885 F3000.0
G1 X-6.441 Y233.611 F3000.0
M280 P0 S90.0 T150.0
G0 X-27.398 Y226.885 F3000.0
M280 P0 S25.0 T250.0
G1 X-28.340 Y226.547 F3000.0
G1 X-29.282 Y226.207 F3000.0
G1 X-30.222 Y225.865 F3000.0
G1 X-31.161 Y225.519 F3000.0
G1 X-32.099 Y225.171 F3000.0
M280 P0 S90.0 T150.0
G0 X-39.566 Y222.287 F3000.0
M280 P0 S25.0 T250.0
G1 X-40.495 Y221.914 F3000.0
G1 X-41.422 Y221.539 F3000.0
G1 X-42.349 Y221.161 F3000.0
M280 P0 S90.0 T150.0
G0 X-54.290 Y216.004 F3000.0
M280 P0 S25.0 T250.0
G1 X-55.200 Y215.589 F3000.0
G1 X-56.110 Y215.171 F3000.0
G1 X-57.018 Y214.751 F3000.0
G1 X-57.924 Y214.328 F3000.0
G1 X-58.830 Y213.902 F3000.0
M280 P0 S90.0 T150.0
G0 X-66.028 Y210.402 F3000.0
M280 P0 S25.0 T250.0
G1 X-66.922 Y209.953 F3000.0
G1 X-67.815 Y209.501 F3000.0
G1 X-68.707 Y209.046 F3000.0
G1 X-69.597 Y208.589 F3000.0
G1 X-70.486 Y208.130 F3000.0
M280 P0 S90.0 T150.0
G0 X-84.519 Y200.429 F3000.0
M280 P0 S25.0 T250.0
G1 X-85.384 Y199.927 F3000.0
M280 P0 S90.0 T150.0
G0 X-3.333 Y233.447 F3000.0
M280 P0 S25.0 T250.0
G1 X-4.298 Y233.179 F3000.0
G1 X-5.261 Y232.907 F3000.0
G1 X-6.224 Y232.633 F3000.0
M280 P0 S90.0 T150.0
G0 X-29.070 Y225.220 F3000.0
M280 P0 S25.0 T250.0
G1 X-30.010 Y224.877 F3000.0
G1 X-30.950 Y224.531 F3000.0
G1 X-31.888 Y224.182 F3000.0
M280 P0 S90.0 T150.0
G0 X-38.426 Y221.665 F3000.0
M280 P0 S25.0 T250.0
G1 X-39.356 Y221.294 F3000.0
G1 X-40.285 Y220.921 F3000.0
G1 X-41.213 Y220.545 F3000.0
G1 X-42.139 Y220.166 F3000.0
M280 P0 S90.0 T150.0
G0 X-53.170 Y215.414 F3000.0
M280 P0 S25.0 T250.0
G1 X-54.081 Y215.001 F3000.0
G1 X-54.992 Y214.585 F3000.0
G1 X-55.901 Y214.166 F3000.0
G1 X-56.809 Y213.745 F3000.0
G1 X-57.716 Y213.321 F3000.0
M280 P0 S90.0 T150.0
G0 X-64.924 Y209.835 F3000.0
M280 P0 S25.0 T250.0
G1 X-65.820 Y209.388 F3000.0
G1 X-66.714 Y208.938 F3000.0
G1 X-67.606 Y208.485 F3000.0
G1 X-68.498 Y208.030 F3000.0
G1 X-69.388 Y207.572 F3000.0
G1 X-70.276 Y207.111 F3000.0
G1 X-71.164 Y206.648 F3000.0
G1 X-72.050 Y206.183 F3000.0
M280 P0 S90.0 T150.0
G0 X-78.214 Y202.852 F3000.0
M280 P0 S25.0 T250.0
G1 X-79.088 Y202.366 F3000.0
G1 X-79.962 Y201.877 F3000.0
G1 X-80.834 Y201.386 F3000.0
G1 X-81.705 Y200.892 F3000.0
G1 X-82.574 Y200.396 F3000.0
G1 X-83.442 Y199.897 F3000.0
G1 X-84.308 Y199.396 F3000.0
G1 X-85.173 Y198.892 F3000.0
G1 X-86.036 Y198.386 F3000.0
G1 X-86.898 Y197.877 F3000.0
M280 P0 S90.0 T150.0
G0 X-3.797 Y232.280 F3000.0
M280 P0 S25.0 T250.0
G1 X-4.761 Y232.009 F3000.0
M280 P0 S90.0 T150.0
G0 X-37.928 Y220.786 F3000.0
M280 P0 S25.0 T250.0
G1 X-38.858 Y220.416 F3000.0
G1 X-39.787 Y220.044 F3000.0
M280 P0 S90.0 T150.0
G0 X-52.672 Y214.542 F3000.0
M280 P0 S25.0 T250.0
G1 X-53.583 Y214.129 F3000.0
M280 P0 S90.0 T150.0
G0 X-56.311 Y212.874 F3000.0
M280 P0 S25.0 T250.0
G1 X-57.218 Y212.450 F3000.0
M280 P0 S90.0 T150.0
G0 X-64.426 Y208.966 F3000.0
M280 P0 S25.0 T250.0
G1 X-65.321 Y208.519 F3000.0
G1 X-66.215 Y208.069 F3000.0
M280 P0 S90.0 T150.0
G0 X-69.778 Y206.244 F3000.0
M280 P0 S25.0 T250.0
G1 X-70.665 Y205.781 F3000.0
G1 X-71.551 Y205.315 F3000.0
M280 P0 S90.0 T150.0
G0 X-75.960 Y202.950 F3000.0
M280 P0 S25.0 T250.0
G1 X-76.838 Y202.469 F3000.0
G1 X-77.714 Y201.985 F3000.0
G1 X-78.589 Y201.499 F3000.0
G1 X-79.462 Y201.011 F3000.0
G1 X-80.334 Y200.520 F3000.0
G1 X-81.205 Y200.026 F3000.0
G1 X-82.074 Y199.530 F3000.0
G1 X-82.942 Y199.031 F3000.0
M280 P0 S90.0 T150.0
G0 X-84.673 Y198.026 F3000.0
M280 P0 S25.0 T250.0
G1 X-85.536 Y197.520 F3000.0
G1 X-86.398 Y197.011 F3000.0
G1 X-87.258 Y196.500 F3000.0
M280 P0 S90.0 T150.0
G0 X-2.333 Y231.649 F3000.0
M280 P0 S25.0 T250.0
G1 X-3.297 Y231.381 F3000.0
G1 X-4.261 Y231.111 F3000.0
M280 P0 S90.0 T150.0
G0 X-37.430 Y219.908 F3000.0
M280 P0 S25.0 T250.0
G1 X-38.360 Y219.539 F3000.0
G1 X-39.288 Y219.166 F3000.0
M280 P0 S90.0 T150.0
G0 X-52.174 Y213.670 F3000.0
M280 P0 S25.0 T250.0
G1 X-53.085 Y213.257 F3000.0
G1 X-53.996 Y212.841 F3000.0
M280 P0 S90.0 T150.0
