;Generated with Makelangelo 7.76.1
; 2025-11-13 at 12:56:20 ART
;FLAVOR:Marlin-polargraph
;MINX:-226.281
;MINY:-198.063
;MAXX:225.682
;MAXY:91.813
;Start of user gcode
G0 Y0
;End of user gcode
G28 X Y
M201 X100.0 Y100.0
M203 X3000.0 Y3000.0
M204 S100.0
M205 X10 Y10
M280 P0 S90.0 T150.0
M0 Ready black and click
G0 X-214.141 Y77.000 F3000.0
M280 P0 S25.0 T250.0
G1 X-215.781 Y77.000 F3000.0
G1 X-215.781 Y83.391 F3000.0
G1 X-223.016 Y83.391 F3000.0
G1 X-223.016 Y77.000 F3000.0
G1 X-224.656 Y77.000 F3000.0
G1 X-224.656 Y91.000 F3000.0
G1 X-223.016 Y91.000 F3000.0
G1 X-223.016 Y84.859 F3000.0
G1 X-215.781 Y84.859 F3000.0
G1 X-215.781 Y91.000 F3000.0
G1 X-214.141 Y91.000 F3000.0
G1 X-214.141 Y77.000 F3000.0
G1 X-214.141 Y77.000 F3000.0
M280 P0 S90.0 T150.0
G0 X-206.504 Y76.766 F3000.0
M280 P0 S25.0 T250.0
G1 X-206.504 Y76.766 F3000.0
G1 X-207.356 Y76.821 F3000.0
G1 X-208.136 Y76.988 F3000.0
G1 X-208.846 Y77.266 F3000.0
G1 X-209.484 Y77.656 F3000.0
G1 X-210.051 Y78.156 F3000.0
G1 X-210.051 Y78.156 F3000.0
G1 X-210.523 Y78.756 F3000.0
G1 X-210.891 Y79.429 F3000.0
G1 X-211.153 Y80.176 F3000.0
G1 X-211.311 Y80.996 F3000.0
G1 X-211.363 Y81.891 F3000.0
G1 X-211.363 Y81.891 F3000.0
G1 X-211.308 Y82.853 F3000.0
G1 X-211.143 Y83.726 F3000.0
G1 X-210.868 Y84.510 F3000.0
G1 X-210.483 Y85.206 F3000.0
G1 X-209.988 Y85.813 F3000.0
G1 X-209.988 Y85.813 F3000.0
G1 X-209.400 Y86.324 F3000.0
G1 X-208.733 Y86.723 F3000.0
G1 X-207.990 Y87.007 F3000.0
G1 X-207.168 Y87.177 F3000.0
G1 X-206.270 Y87.234 F3000.0
G1 X-206.270 Y87.234 F3000.0
G1 X-205.415 Y87.179 F3000.0
G1 X-204.640 Y87.014 F3000.0
G1 X-203.943 Y86.739 F3000.0
G1 X-203.325 Y86.354 F3000.0
G1 X-202.785 Y85.859 F3000.0
G1 X-202.785 Y85.859 F3000.0
G1 X-202.330 Y85.267 F3000.0
G1 X-201.975 Y84.589 F3000.0
G1 X-201.722 Y83.827 F3000.0
G1 X-201.570 Y82.979 F3000.0
G1 X-201.520 Y82.047 F3000.0
G1 X-201.520 Y82.047 F3000.0
G1 X-201.574 Y81.123 F3000.0
G1 X-201.737 Y80.277 F3000.0
G1 X-202.009 Y79.508 F3000.0
G1 X-202.390 Y78.817 F3000.0
G1 X-202.879 Y78.203 F3000.0
G1 X-202.879 Y78.203 F3000.0
G1 X-203.454 Y77.686 F3000.0
G1 X-204.104 Y77.283 F3000.0
G1 X-204.829 Y76.996 F3000.0
G1 X-205.629 Y76.823 F3000.0
G1 X-206.504 Y76.766 F3000.0
G1 X-206.504 Y76.766 F3000.0
M280 P0 S90.0 T150.0
G0 X-206.379 Y85.891 F3000.0
M280 P0 S25.0 T250.0
G1 X-206.379 Y85.891 F3000.0
G1 X-206.972 Y85.848 F3000.0
G1 X-207.514 Y85.721 F3000.0
G1 X-208.005 Y85.508 F3000.0
G1 X-208.444 Y85.211 F3000.0
G1 X-208.832 Y84.828 F3000.0
G1 X-208.832 Y84.828 F3000.0
G1 X-209.153 Y84.378 F3000.0
G1 X-209.402 Y83.863 F3000.0
G1 X-209.580 Y83.285 F3000.0
G1 X-209.687 Y82.643 F3000.0
G1 X-209.723 Y81.938 F3000.0
G1 X-209.723 Y81.938 F3000.0
G1 X-209.686 Y81.261 F3000.0
G1 X-209.578 Y80.643 F3000.0
G1 X-209.396 Y80.083 F3000.0
G1 X-209.143 Y79.582 F3000.0
G1 X-208.816 Y79.141 F3000.0
G1 X-208.816 Y79.141 F3000.0
G1 X-208.429 Y78.769 F3000.0
G1 X-207.991 Y78.481 F3000.0
G1 X-207.504 Y78.274 F3000.0
G1 X-206.966 Y78.151 F3000.0
G1 X-206.379 Y78.109 F3000.0
G1 X-206.379 Y78.109 F3000.0
G1 X-205.789 Y78.149 F3000.0
G1 X-205.256 Y78.269 F3000.0
G1 X-204.781 Y78.469 F3000.0
G1 X-204.364 Y78.749 F3000.0
G1 X-204.004 Y79.109 F3000.0
G1 X-204.004 Y79.109 F3000.0
G1 X-203.700 Y79.549 F3000.0
G1 X-203.464 Y80.057 F3000.0
G1 X-203.295 Y80.632 F3000.0
G1 X-203.194 Y81.274 F3000.0
G1 X-203.160 Y81.984 F3000.0
G1 X-203.160 Y81.984 F3000.0
G1 X-203.194 Y82.700 F3000.0
G1 X-203.295 Y83.347 F3000.0
G1 X-203.464 Y83.925 F3000.0
G1 X-203.700 Y84.434 F3000.0
G1 X-204.004 Y84.875 F3000.0
G1 X-204.004 Y84.875 F3000.0
G1 X-204.364 Y85.241 F3000.0
G1 X-204.781 Y85.525 F3000.0
G1 X-205.256 Y85.728 F3000.0
G1 X-205.789 Y85.850 F3000.0
G1 X-206.379 Y85.891 F3000.0
G1 X-206.379 Y85.891 F3000.0
M280 P0 S90.0 T150.0
G0 X-197.363 Y77.000 F3000.0
M280 P0 S25.0 T250.0
G1 X-198.957 Y77.000 F3000.0
G1 X-198.957 Y91.813 F3000.0
G1 X-197.363 Y91.813 F3000.0
G1 X-197.363 Y77.000 F3000.0
G1 X-197.363 Y77.000 F3000.0
M280 P0 S90.0 T150.0
G0 X-186.957 Y77.000 F3000.0
M280 P0 S25.0 T250.0
G1 X-188.566 Y77.000 F3000.0
G1 X-188.566 Y78.563 F3000.0
G1 X-188.598 Y78.563 F3000.0
G1 X-188.598 Y78.563 F3000.0
G1 X-189.056 Y77.916 F3000.0
G1 X-189.593 Y77.412 F3000.0
G1 X-190.208 Y77.053 F3000.0
G1 X-190.903 Y76.838 F3000.0
G1 X-191.676 Y76.766 F3000.0
G1 X-191.676 Y76.766 F3000.0
G1 X-192.250 Y76.797 F3000.0
G1 X-192.771 Y76.891 F3000.0
G1 X-193.240 Y77.047 F3000.0
G1 X-193.656 Y77.266 F3000.0
G1 X-194.020 Y77.547 F3000.0
G1 X-194.020 Y77.547 F3000.0
G1 X-194.323 Y77.886 F3000.0
G1 X-194.560 Y78.267 F3000.0
G1 X-194.728 Y78.689 F3000.0
G1 X-194.830 Y79.152 F3000.0
G1 X-194.863 Y79.656 F3000.0
G1 X-194.863 Y79.656 F3000.0
G1 X-194.731 Y80.682 F3000.0
G1 X-194.333 Y81.521 F3000.0
G1 X-193.671 Y82.174 F3000.0
G1 X-192.743 Y82.641 F3000.0
G1 X-191.551 Y82.922 F3000.0
G1 X-188.566 Y83.344 F3000.0
G1 X-188.566 Y83.344 F3000.0
G1 X-188.648 Y84.261 F3000.0
G1 X-188.894 Y84.974 F3000.0
G1 X-189.303 Y85.483 F3000.0
G1 X-189.876 Y85.789 F3000.0
G1 X-190.613 Y85.891 F3000.0
G1 X-190.613 Y85.891 F3000.0
G1 X-191.324 Y85.841 F3000.0
G1 X-192.006 Y85.693 F3000.0
G1 X-192.659 Y85.446 F3000.0
G1 X-193.283 Y85.101 F3000.0
G1 X-193.879 Y84.656 F3000.0
G1 X-193.879 Y86.297 F3000.0
G1 X-193.879 Y86.297 F3000.0
G1 X-193.273 Y86.634 F3000.0
G1 X-192.631 Y86.897 F3000.0
G1 X-191.953 Y87.084 F3000.0
G1 X-191.239 Y87.197 F3000.0
G1 X-190.488 Y87.234 F3000.0
G1 X-190.488 Y87.234 F3000.0
G1 X-189.217 Y87.085 F3000.0
G1 X-188.228 Y86.637 F3000.0
G1 X-187.522 Y85.890 F3000.0
G1 X-187.098 Y84.844 F3000.0
G1 X-186.957 Y83.500 F3000.0
G1 X-186.957 Y77.000 F3000.0
G1 X-186.957 Y77.000 F3000.0
M280 P0 S90.0 T150.0
G0 X-188.566 Y82.063 F3000.0
M280 P0 S25.0 T250.0
G1 X-190.973 Y81.734 F3000.0
G1 X-190.973 Y81.734 F3000.0
G1 X-191.395 Y81.662 F3000.0
G1 X-191.775 Y81.569 F3000.0
G1 X-192.113 Y81.457 F3000.0
G1 X-192.408 Y81.324 F3000.0
G1 X-192.660 Y81.172 F3000.0
G1 X-192.660 Y81.172 F3000.0
G1 X-192.863 Y80.991 F3000.0
G1 X-193.020 Y80.762 F3000.0
G1 X-193.133 Y80.484 F3000.0
G1 X-193.200 Y80.157 F3000.0
G1 X-193.223 Y79.781 F3000.0
G1 X-193.223 Y79.781 F3000.0
G1 X-193.202 Y79.498 F3000.0
G1 X-193.140 Y79.236 F3000.0
G1 X-193.037 Y78.996 F3000.0
G1 X-192.893 Y78.776 F3000.0
G1 X-192.707 Y78.578 F3000.0
G1 X-192.707 Y78.578 F3000.0
G1 X-192.481 Y78.409 F3000.0
G1 X-192.227 Y78.278 F3000.0
G1 X-191.946 Y78.184 F3000.0
G1 X-191.637 Y78.128 F3000.0
G1 X-191.301 Y78.109 F3000.0
G1 X-191.301 Y78.109 F3000.0
G1 X-190.843 Y78.143 F3000.0
G1 X-190.418 Y78.242 F3000.0
G1 X-190.028 Y78.408 F3000.0
G1 X-189.671 Y78.639 F3000.0
G1 X-189.348 Y78.938 F3000.0
G1 X-189.348 Y78.938 F3000.0
G1 X-189.066 Y79.293 F3000.0
G1 X-188.848 Y79.683 F3000.0
G1 X-188.691 Y80.107 F3000.0
G1 X-188.598 Y80.567 F3000.0
G1 X-188.566 Y81.063 F3000.0
G1 X-188.566 Y82.063 F3000.0
G1 X-188.566 Y82.063 F3000.0
M280 P0 S90.0 T150.0
G0 X-171.303 Y77.000 F3000.0
M280 P0 S25.0 T250.0
G1 X-172.912 Y77.000 F3000.0
G1 X-172.912 Y78.563 F3000.0
G1 X-172.943 Y78.563 F3000.0
G1 X-172.943 Y78.563 F3000.0
G1 X-173.401 Y77.916 F3000.0
G1 X-173.938 Y77.412 F3000.0
G1 X-174.554 Y77.053 F3000.0
G1 X-175.248 Y76.838 F3000.0
G1 X-176.021 Y76.766 F3000.0
G1 X-176.021 Y76.766 F3000.0
G1 X-176.595 Y76.797 F3000.0
G1 X-177.116 Y76.891 F3000.0
G1 X-177.585 Y77.047 F3000.0
G1 X-178.001 Y77.266 F3000.0
G1 X-178.365 Y77.547 F3000.0
G1 X-178.365 Y77.547 F3000.0
G1 X-178.669 Y77.886 F3000.0
G1 X-178.905 Y78.267 F3000.0
G1 X-179.074 Y78.689 F3000.0
G1 X-179.175 Y79.152 F3000.0
G1 X-179.209 Y79.656 F3000.0
G1 X-179.209 Y79.656 F3000.0
G1 X-179.076 Y80.682 F3000.0
G1 X-178.679 Y81.521 F3000.0
G1 X-178.016 Y82.174 F3000.0
G1 X-177.089 Y82.641 F3000.0
G1 X-175.896 Y82.922 F3000.0
G1 X-172.912 Y83.344 F3000.0
G1 X-172.912 Y83.344 F3000.0
G1 X-172.994 Y84.261 F3000.0
G1 X-173.240 Y84.974 F3000.0
G1 X-173.649 Y85.483 F3000.0
G1 X-174.222 Y85.789 F3000.0
G1 X-174.959 Y85.891 F3000.0
G1 X-174.959 Y85.891 F3000.0
G1 X-175.670 Y85.841 F3000.0
G1 X-176.351 Y85.693 F3000.0
G1 X-177.005 Y85.446 F3000.0
G1 X-177.629 Y85.101 F3000.0
G1 X-178.225 Y84.656 F3000.0
G1 X-178.225 Y86.297 F3000.0
G1 X-178.225 Y86.297 F3000.0
G1 X-177.619 Y86.634 F3000.0
G1 X-176.977 Y86.897 F3000.0
G1 X-176.299 Y87.084 F3000.0
G1 X-175.585 Y87.197 F3000.0
G1 X-174.834 Y87.234 F3000.0
G1 X-174.834 Y87.234 F3000.0
G1 X-173.563 Y87.085 F3000.0
G1 X-172.574 Y86.637 F3000.0
G1 X-171.868 Y85.890 F3000.0
G1 X-171.444 Y84.844 F3000.0
G1 X-171.303 Y83.500 F3000.0
G1 X-171.303 Y77.000 F3000.0
G1 X-171.303 Y77.000 F3000.0
M280 P0 S90.0 T150.0
G0 X-172.912 Y82.063 F3000.0
M280 P0 S25.0 T250.0
G1 X-175.318 Y81.734 F3000.0
G1 X-175.318 Y81.734 F3000.0
G1 X-175.741 Y81.662 F3000.0
G1 X-176.121 Y81.569 F3000.0
G1 X-176.458 Y81.457 F3000.0
G1 X-176.753 Y81.324 F3000.0
G1 X-177.006 Y81.172 F3000.0
G1 X-177.006 Y81.172 F3000.0
G1 X-177.208 Y80.991 F3000.0
G1 X-177.366 Y80.762 F3000.0
G1 X-177.478 Y80.484 F3000.0
G1 X-177.546 Y80.157 F3000.0
G1 X-177.568 Y79.781 F3000.0
G1 X-177.568 Y79.781 F3000.0
G1 X-177.548 Y79.498 F3000.0
G1 X-177.486 Y79.236 F3000.0
G1 X-177.383 Y78.996 F3000.0
G1 X-177.238 Y78.776 F3000.0
G1 X-177.053 Y78.578 F3000.0
G1 X-177.053 Y78.578 F3000.0
G1 X-176.826 Y78.409 F3000.0
G1 X-176.573 Y78.278 F3000.0
G1 X-176.291 Y78.184 F3000.0
G1 X-175.983 Y78.128 F3000.0
G1 X-175.646 Y78.109 F3000.0
G1 X-175.646 Y78.109 F3000.0
G1 X-175.188 Y78.143 F3000.0
G1 X-174.764 Y78.242 F3000.0
G1 X-174.373 Y78.408 F3000.0
G1 X-174.016 Y78.639 F3000.0
G1 X-173.693 Y78.938 F3000.0
G1 X-173.693 Y78.938 F3000.0
G1 X-173.412 Y79.293 F3000.0
G1 X-173.193 Y79.683 F3000.0
G1 X-173.037 Y80.107 F3000.0
G1 X-172.943 Y80.567 F3000.0
G1 X-172.912 Y81.063 F3000.0
G1 X-172.912 Y82.063 F3000.0
G1 X-172.912 Y82.063 F3000.0
M280 P0 S90.0 T150.0
G0 X-158.164 Y77.094 F3000.0
M280 P0 S25.0 T250.0
G1 X-158.164 Y77.094 F3000.0
G1 X-158.409 Y76.981 F3000.0
G1 X-158.682 Y76.894 F3000.0
G1 X-158.982 Y76.831 F3000.0
G1 X-159.309 Y76.794 F3000.0
G1 X-159.664 Y76.781 F3000.0
G1 X-159.664 Y76.781 F3000.0
G1 X-160.609 Y76.899 F3000.0
G1 X-161.344 Y77.251 F3000.0
G1 X-161.869 Y77.839 F3000.0
G1 X-162.184 Y78.661 F3000.0
G1 X-162.289 Y79.719 F3000.0
G1 X-162.289 Y85.641 F3000.0
G1 X-164.008 Y85.641 F3000.0
G1 X-164.008 Y87.000 F3000.0
G1 X-162.289 Y87.000 F3000.0
G1 X-162.289 Y89.438 F3000.0
G1 X-160.695 Y89.953 F3000.0
G1 X-160.695 Y87.000 F3000.0
G1 X-158.164 Y87.000 F3000.0
G1 X-158.164 Y85.641 F3000.0
G1 X-160.695 Y85.641 F3000.0
G1 X-160.695 Y80.000 F3000.0
G1 X-160.695 Y80.000 F3000.0
G1 X-160.682 Y79.622 F3000.0
G1 X-160.640 Y79.290 F3000.0
G1 X-160.572 Y79.003 F3000.0
G1 X-160.475 Y78.760 F3000.0
G1 X-160.352 Y78.563 F3000.0
G1 X-160.352 Y78.563 F3000.0
G1 X-160.196 Y78.411 F3000.0
G1 X-160.004 Y78.293 F3000.0
G1 X-159.776 Y78.208 F3000.0
G1 X-159.512 Y78.158 F3000.0
G1 X-159.211 Y78.141 F3000.0
G1 X-159.211 Y78.141 F3000.0
G1 X-158.974 Y78.154 F3000.0
G1 X-158.751 Y78.193 F3000.0
G1 X-158.542 Y78.259 F3000.0
G1 X-158.346 Y78.351 F3000.0
G1 X-158.164 Y78.469 F3000.0
G1 X-158.164 Y77.094 F3000.0
G1 X-158.164 Y77.094 F3000.0
M280 P0 S90.0 T150.0
G0 X-151.855 Y76.766 F3000.0
M280 P0 S25.0 T250.0
G1 X-151.855 Y76.766 F3000.0
G1 X-152.707 Y76.821 F3000.0
G1 X-153.488 Y76.988 F3000.0
G1 X-154.197 Y77.266 F3000.0
G1 X-154.835 Y77.656 F3000.0
G1 X-155.402 Y78.156 F3000.0
G1 X-155.402 Y78.156 F3000.0
G1 X-155.875 Y78.756 F3000.0
G1 X-156.242 Y79.429 F3000.0
G1 X-156.505 Y80.176 F3000.0
G1 X-156.662 Y80.996 F3000.0
G1 X-156.715 Y81.891 F3000.0
G1 X-156.715 Y81.891 F3000.0
G1 X-156.660 Y82.853 F3000.0
G1 X-156.495 Y83.726 F3000.0
G1 X-156.220 Y84.510 F3000.0
G1 X-155.835 Y85.206 F3000.0
G1 X-155.340 Y85.813 F3000.0
G1 X-155.340 Y85.813 F3000.0
G1 X-154.751 Y86.324 F3000.0
G1 X-154.085 Y86.723 F3000.0
G1 X-153.341 Y87.007 F3000.0
G1 X-152.520 Y87.177 F3000.0
G1 X-151.621 Y87.234 F3000.0
G1 X-151.621 Y87.234 F3000.0
G1 X-150.767 Y87.179 F3000.0
G1 X-149.991 Y87.014 F3000.0
G1 X-149.294 Y86.739 F3000.0
G1 X-148.676 Y86.354 F3000.0
G1 X-148.137 Y85.859 F3000.0
G1 X-148.137 Y85.859 F3000.0
G1 X-147.681 Y85.267 F3000.0
G1 X-147.327 Y84.589 F3000.0
G1 X-147.074 Y83.827 F3000.0
G1 X-146.922 Y82.979 F3000.0
G1 X-146.871 Y82.047 F3000.0
G1 X-146.871 Y82.047 F3000.0
G1 X-146.925 Y81.123 F3000.0
G1 X-147.089 Y80.277 F3000.0
G1 X-147.360 Y79.508 F3000.0
G1 X-147.741 Y78.817 F3000.0
G1 X-148.230 Y78.203 F3000.0
G1 X-148.230 Y78.203 F3000.0
G1 X-148.805 Y77.686 F3000.0
G1 X-149.455 Y77.283 F3000.0
G1 X-150.180 Y76.996 F3000.0
G1 X-150.980 Y76.823 F3000.0
G1 X-151.855 Y76.766 F3000.0
G1 X-151.855 Y76.766 F3000.0
M280 P0 S90.0 T150.0
G0 X-151.730 Y85.891 F3000.0
M280 P0 S25.0 T250.0
G1 X-151.730 Y85.891 F3000.0
G1 X-152.324 Y85.848 F3000.0
G1 X-152.865 Y85.721 F3000.0
G1 X-153.356 Y85.508 F3000.0
G1 X-153.795 Y85.211 F3000.0
G1 X-154.184 Y84.828 F3000.0
G1 X-154.184 Y84.828 F3000.0
G1 X-154.504 Y84.378 F3000.0
G1 X-154.754 Y83.863 F3000.0
G1 X-154.932 Y83.285 F3000.0
G1 X-155.039 Y82.643 F3000.0
G1 X-155.074 Y81.938 F3000.0
G1 X-155.074 Y81.938 F3000.0
G1 X-155.038 Y81.261 F3000.0
G1 X-154.929 Y80.643 F3000.0
G1 X-154.748 Y80.083 F3000.0
G1 X-154.494 Y79.582 F3000.0
G1 X-154.168 Y79.141 F3000.0
G1 X-154.168 Y79.141 F3000.0
G1 X-153.780 Y78.769 F3000.0
G1 X-153.343 Y78.481 F3000.0
G1 X-152.855 Y78.274 F3000.0
G1 X-152.318 Y78.151 F3000.0
G1 X-151.730 Y78.109 F3000.0
G1 X-151.730 Y78.109 F3000.0
G1 X-151.140 Y78.149 F3000.0
G1 X-150.608 Y78.269 F3000.0
G1 X-150.133 Y78.469 F3000.0
G1 X-149.715 Y78.749 F3000.0
G1 X-149.355 Y79.109 F3000.0
G1 X-149.355 Y79.109 F3000.0
G1 X-149.052 Y79.549 F3000.0
G1 X-148.815 Y80.057 F3000.0
G1 X-148.647 Y80.632 F3000.0
G1 X-148.545 Y81.274 F3000.0
G1 X-148.512 Y81.984 F3000.0
G1 X-148.512 Y81.984 F3000.0
G1 X-148.545 Y82.700 F3000.0
G1 X-148.647 Y83.347 F3000.0
G1 X-148.815 Y83.925 F3000.0
G1 X-149.052 Y84.434 F3000.0
G1 X-149.355 Y84.875 F3000.0
G1 X-149.355 Y84.875 F3000.0
G1 X-149.715 Y85.241 F3000.0
G1 X-150.133 Y85.525 F3000.0
G1 X-150.608 Y85.728 F3000.0
G1 X-151.140 Y85.850 F3000.0
G1 X-151.730 Y85.891 F3000.0
G1 X-151.730 Y85.891 F3000.0
M280 P0 S90.0 T150.0
G0 X-135.777 Y77.000 F3000.0
M280 P0 S25.0 T250.0
G1 X-137.371 Y77.000 F3000.0
G1 X-137.371 Y78.703 F3000.0
G1 X-137.418 Y78.703 F3000.0
G1 X-137.418 Y78.703 F3000.0
G1 X-137.910 Y78.006 F3000.0
G1 X-138.500 Y77.463 F3000.0
G1 X-139.188 Y77.076 F3000.0
G1 X-139.973 Y76.843 F3000.0
G1 X-140.855 Y76.766 F3000.0
G1 X-140.855 Y76.766 F3000.0
G1 X-141.581 Y76.819 F3000.0
G1 X-142.245 Y76.981 F3000.0
G1 X-142.849 Y77.249 F3000.0
G1 X-143.390 Y77.626 F3000.0
G1 X-143.871 Y78.109 F3000.0
G1 X-143.871 Y78.109 F3000.0
G1 X-144.276 Y78.686 F3000.0
G1 X-144.591 Y79.339 F3000.0
G1 X-144.816 Y80.071 F3000.0
G1 X-144.951 Y80.879 F3000.0
G1 X-144.996 Y81.766 F3000.0
G1 X-144.996 Y81.766 F3000.0
G1 X-144.946 Y82.719 F3000.0
G1 X-144.796 Y83.593 F3000.0
G1 X-144.546 Y84.387 F3000.0
G1 X-144.196 Y85.101 F3000.0
G1 X-143.746 Y85.734 F3000.0
G1 X-143.746 Y85.734 F3000.0
G1 X-143.213 Y86.274 F3000.0
G1 X-142.614 Y86.694 F3000.0
G1 X-141.948 Y86.994 F3000.0
G1 X-141.216 Y87.174 F3000.0
G1 X-140.418 Y87.234 F3000.0
G1 X-140.418 Y87.234 F3000.0
G1 X-139.638 Y87.169 F3000.0
G1 X-138.948 Y86.974 F3000.0
G1 X-138.348 Y86.649 F3000.0
G1 X-137.838 Y86.194 F3000.0
G1 X-137.418 Y85.609 F3000.0
G1 X-137.371 Y85.609 F3000.0
G1 X-137.371 Y91.813 F3000.0
G1 X-135.777 Y91.813 F3000.0
G1 X-135.777 Y77.000 F3000.0
G1 X-135.777 Y77.000 F3000.0
M280 P0 S90.0 T150.0
G0 X-137.371 Y81.516 F3000.0
M280 P0 S25.0 T250.0
G1 X-137.371 Y83.000 F3000.0
G1 X-137.371 Y83.000 F3000.0
G1 X-137.404 Y83.467 F3000.0
G1 X-137.501 Y83.905 F3000.0
G1 X-137.664 Y84.314 F3000.0
G1 X-137.891 Y84.695 F3000.0
G1 X-138.184 Y85.047 F3000.0
G1 X-138.184 Y85.047 F3000.0
G1 X-138.520 Y85.351 F3000.0
G1 X-138.891 Y85.587 F3000.0
G1 X-139.297 Y85.756 F3000.0
G1 X-139.739 Y85.857 F3000.0
G1 X-140.215 Y85.891 F3000.0
G1 X-140.215 Y85.891 F3000.0
G1 X-140.772 Y85.848 F3000.0
G1 X-141.280 Y85.718 F3000.0
G1 X-141.739 Y85.503 F3000.0
G1 X-142.150 Y85.201 F3000.0
G1 X-142.512 Y84.813 F3000.0
G1 X-142.512 Y84.813 F3000.0
